!!!!SEGMENT: pl-cz--iii-457--001_kuci-mateusz--symfonia-es-allegro.krn
!!!cenid: 17xx:945
!!!COM: Kuci, Mateusz
!!!COM-rismID: pe30017582
!!!CDT:
!!!CNT:
!!!OPR: Symfonia Es
!!!OTL: Allegro
!!!OMV: 001
!!!PDT:
!!!AGN: Secular
!!!SMS-siglum: PL-CZ
!!!SMS-shelfmark: III-457
!!!SMS-shelfwork: 001-001 M
!!!SMS-variant: Baſso.:pl-cz-nut--iii-457:0002
!!!SMS-altvar: Baſso.:pl-cz-nut--iii-457:0016
!!!NIFC-rismSourceID: 300000669
!!!NIFC-rismChildID: 300000669
!!!NIFC-islandoraID: pl-cz:38585
!!!URL-pdf-islandora: https://repozytorium.nifc.pl/islandora/object/pl-cz%3A38585/datastream/PDF/view
!!!URL-scan: https://polish.musicsources.pl/pl/lokalizacje/galeria/rekopisy/6935/1 @EN{Scan on Polish Music Sources Website} @PL{Skany w portalu Dziedzictwo Muzyki Polskiej w otwartym dostępie}
!!!ONB-nifc: UWAGA: części Symfonii: Allegro, Andantino, Presto
!!!AIN: 1 cello 2 cor 1 viola 2 violn
!!!key:
**kern	**dynam	**kern	**dynam	**kern	**dynam	**kern	**dynam	**kern	**dynam	**kern	**dynam
*group2	*	*group2	*	*group2	*	*group2	*	*group1	*	*group1	*
*part6	*part6	*part5	*part5	*part4	*part4	*part3	*part3	*part2	*part2	*part1	*part1
*staff6	*	*staff5	*	*staff4	*	*staff3	*	*staff2	*	*staff1	*
*I"Baſso.	*	*I"Viola	*	*I"Violino Secundo	*	*I"Violino Primo.	*	*I"Cornu Secundo in Dis	*	*I"Cornu Primo in Dis	*
*I'vlc e cb	*	*I'vla	*	*I'vl 2	*	*I'vl 1	*	*I'cor 2	*	*I'cor 1	*
*Icello	*	*Iviola	*	*Ivioln	*	*Ivioln	*	*Icor	*	*Icor	*
*Icbass	*	*	*	*	*	*	*	*	*	*	*
*ICstr	*	*ICstr	*	*ICstr	*	*ICstr	*	*ICbras	*	*ICbras	*
*>[A,A,B,B]	*	*>[A,A,B,B]	*	*>[A,A,B,B]	*	*>[A,A,B,B]	*	*>[A,A,B,B]	*	*>[A,A,B,B]	*
*clefF4	*	*clefC3	*	*clefG2	*	*clefG2	*	*clefG2	*	*clefG2	*
*	*	*	*	*	*	*	*	*ITrd5c9	*	*ITrd5c9	*
*k[b-e-a-]	*	*k[b-e-a-]	*	*k[b-e-a-]	*	*k[b-e-a-]	*	*k[b-e-a-]	*	*k[b-e-a-]	*
*E-:	*	*E-:	*	*E-:	*	*E-:	*	*	*	*	*
*M2/2	*	*M2/2	*	*M2/2	*	*M2/2	*	*M2/2	*	*M2/2	*
*met(c|)	*	*met(c|)	*	*met(c|)	*	*met(c|)	*	*met(c|)	*	*met(c|)	*
=1	=1	=1	=1	=1	=1	=1	=1	=1	=1	=1	=1
*>A	*	*>A	*	*>A	*	*>A	*	*>A	*	*>A	*
*2\right	*	*2\right	*	*	*	*	*	*	*	*2\right	*
!	!	!LO:TX:t=P::problem=uwaga na skany&colon; 11 i 9 (od 4. pięciolinii)	!	!	!	!	!	!	!	!	!
!	!	!LO:TX:t=P:problem=kolejność znaków&colon; B- A- e-	!	!LO:TX:t=P::problem=uwaga na skany&colon; 8 i 6	!	!LO:TX:t=P::problem=uwaga na skany&colon; 5 i 3	!	!	!	!	!
!LO:TX:t=P:znaki:problem= A- zamiast AA-	!	!	!	!LO:TX:t=P:problem=kolejność znaków&colon; ee- a- b-	!	!LO:TX:t=P:problem=kolejność znaków&colon; ee- a- b-	!	!	!	!	!
!LO:TX:a:i:t=Allegro	!	!LO:TX:a:i:t=Allegro	!	!LO:TX:a:i:t=Allegro.	!	!LO:TX:a:i:t=Allegro	!	!LO:TX:a:i:t=Allegro	!LO:DY:rj	!LO:TX:a:i:t=Allegro	!
2E-\	.	2e-\	f	2e-/	.	2e-/	.	2E-/	f	2e-\	f
2BB-/	.	2B-/	.	2B-/	.	2B-/	.	2BB-/	.	2B-/	.
=2	=2	=2	=2	=2	=2	=2	=2	=2	=2	=2	=2
8E-\L	.	8e-\L	.	8e-/L	.	8e-/L	.	4E-/	.	4e-\	.
8G\	.	8g\	.	8g/	.	8g/	.	.	.	.	.
8B-\	.	8b-\	.	8b-/	.	8b-/	.	4E-/	.	4e-\	.
8G\J	.	8g\J	.	8g/J	.	8g/J	.	.	.	.	.
4E-\	.	4e-\	.	4e-/	.	4e-/	.	4E-/	.	4e-\	.
4r	.	4r	.	4r	.	4r	.	4r	.	4r	.
=3	=3	=3	=3	=3	=3	=3	=3	=3	=3	=3	=3
!LO:TX:a:t=2	!	!LO:TX:a:t=2	!	!LO:TX:a:t=2	!	!LO:TX:a:t=2	!	!LO:TX:a:i:t=Solo	!	!LO:TX:a:i:t=Solo	!
0r	.	0r	.	0r	.	0r	.	4B-/	.	4f\	.
.	.	.	.	.	.	.	.	8B-/L	.	8f\L	.
.	.	.	.	.	.	.	.	8B-/J	.	8f\J	.
.	.	.	.	.	.	.	.	4B-/	.	4f\	.
.	.	.	.	.	.	.	.	4B-/	.	4f\	.
=4	=4	=4	=4	=4	=4	=4	=4	=4	=4	=4	=4
.	.	.	.	.	.	.	.	4e-\	.	4g\	.
.	.	.	.	.	.	.	.	4g\	.	4b-\	.
.	.	.	.	.	.	.	.	2r	.	2r	.
=5	=5	=5	=5	=5	=5	=5	=5	=5	=5	=5	=5
!	!	!	!	!	!	!	!	!LO:TX:a:t=2	!	!LO:TX:a:t=2	!
2E-\	.	2e-\	.	2e-/	.	2e-/	.	0r	.	0r	.
2BB-/	.	2B-/	.	2B-/	.	2B-/	.	.	.	.	.
=6	=6	=6	=6	=6	=6	=6	=6	=6	=6	=6	=6
8E-\L	.	8e-\L	.	8e-/L	.	8e-/L	.	.	.	.	.
8G\	.	8g\	.	8g/	.	8g/	.	.	.	.	.
8B-\	.	8b-\	.	8b-/	.	8b-/	.	.	.	.	.
8G\J	.	8g\J	.	8g/J	.	8g/J	.	.	.	.	.
4E-\	.	4e-\	.	4e-/	.	4e-/	.	.	.	.	.
4r	.	4r	.	4r	.	4r	.	.	.	.	.
=7	=7	=7	=7	=7	=7	=7	=7	=7	=7	=7	=7
!LO:TX:a:t=1	!	!LO:TX:a:t=2	!	!LO:TX:a:t=2	!	!LO:TX:a:t=2	!	!	!	!	!
1r	.	0r	.	0r	.	0r	.	4B-/	.	4f\	.
.	.	.	.	.	.	.	.	8B-/L	.	8f\L	.
.	.	.	.	.	.	.	.	8B-/J	.	8f\J	.
.	.	.	.	.	.	.	.	4B-/	.	4f\	.
.	.	.	.	.	.	.	.	4B-/	.	4f\	.
=8	=8	=8	=8	=8	=8	=8	=8	=8	=8	=8	=8
4r	.	.	.	.	.	.	.	4e-\	.	4g\	.
8r	.	.	.	.	.	.	.	4G/	.	4e-\	.
8E-\	.	.	.	.	.	.	.	.	.	.	.
8BB-/L	.	.	.	.	.	.	.	2r	.	2r	.
8E-/	.	.	.	.	.	.	.	.	.	.	.
8GG/	.	.	.	.	.	.	.	.	.	.	.
8BB-/J	.	.	.	.	.	.	.	.	.	.	.
!	!	!	!	!	!	!	!	!LO:LB:g=original	!	!	!
=9	=9	=9	=9	=9	=9	=9	=9	=9	=9	=9	=9
*	*	*tremolo	*	*	*	*	*	*	*	*	*
!LO:TX:t=P:problem=mixed beam	!LO:DY:a	!	!	!	!	!	!LO:DY:t=for&colon;	!	!LO:DY:a	!	!
8EE-/L	f	16g\LL	.	16b-\LL	f	4.ee-\	f	[>1E-/	f	[1e-/	f
.	.	16g\	.	16b-\	.	.	.	.	.	.	.
8E-\	.	16g\	.	16b-\	.	.	.	.	.	.	.
.	.	16g\JJ	.	16b-\JJ	.	.	.	.	.	.	.
*	*	*	*	*tremolo	*	*	*	*	*	*	*
8E-\	.	16g\LL	.	16b-\LL	.	.	.	.	.	.	.
.	.	16g\	.	16b-\	.	.	.	.	.	.	.
8E-\J	.	16g\	.	16b-\	.	8b-\	.	.	.	.	.
.	.	16g\JJ	.	16b-\JJ	.	.	.	.	.	.	.
*tremolo	*	*	*	*2\right	*	*	*	*	*	*	*
8E-\L	.	16g\LL	.	16b-\LL	.	4.gg\	.	.	.	.	.
.	.	16g\	.	16b-\	.	.	.	.	.	.	.
8E-\	.	16g\	.	16b-\	.	.	.	.	.	.	.
.	.	16g\	.	16b-\	.	.	.	.	.	.	.
8E-\	.	16g\	.	16b-\	.	.	.	.	.	.	.
.	.	16g\	.	16b-\	.	.	.	.	.	.	.
8E-\J	.	16g\	.	16b-\	.	8ee-\	.	.	.	.	.
.	.	16g\JJ	.	16b-\JJ	.	.	.	.	.	.	.
!LO:LB:g=original	!	!	!	!LO:LB:g=original	!	!LO:LB:g=original	!	!	!	!	!
=10	=10	=10	=10	=10	=10	=10	=10	=10	=10	=10	=10
8E-\L	.	16g\LL	.	16b-\LL	.	8.bb-\L	.	1E-/]	.	1e-/]	.
.	.	16g\	.	16b-\	.	.	.	.	.	.	.
8E-\	.	16g\	.	16b-\	.	.	.	.	.	.	.
.	.	16g\	.	16b-\	.	16gg\Jk	.	.	.	.	.
8E-\	.	16g\	.	16b-\	.	4ee-\	.	.	.	.	.
.	.	16g\	.	16b-\	.	.	.	.	.	.	.
8E-\J	.	16g\	.	16b-\	.	.	.	.	.	.	.
.	.	16g\JJ	.	16b-\JJ	.	.	.	.	.	.	.
8G\L	.	16g\LL	.	16b-\LL	.	4r	.	.	.	.	.
.	.	16g\	.	16b-\	.	.	.	.	.	.	.
8G\	.	16g\	.	16b-\	.	.	.	.	.	.	.
.	.	16g\	.	16b-\	.	.	.	.	.	.	.
8G\	.	16g\	.	16b-\	.	4ee-\	.	.	.	.	.
.	.	16g\	.	16b-\	.	.	.	.	.	.	.
8G\J	.	16g\	.	16b-\	.	.	.	.	.	.	.
.	.	16g\JJ	.	16b-\JJ	.	.	.	.	.	.	.
!	!	!LO:LB:g=original	!	!	!	!	!	!	!	!	!
=11	=11	=11	=11	=11	=11	=11	=11	=11	=11	=11	=11
*	*	*	*	*^	*	*	*	*	*	*	*
8F\L	.	16f\LL	.	16b-/LL	16a-\LL	.	8dd\L	.	1B-/	.	1f/	.
.	.	16f\	.	16b-/	16a-\	.	.	.	.	.	.	.
8F\	.	16f\	.	16b-/	16a-\	.	8ff\J	.	.	.	.	.
.	.	16f\	.	16b-/	16a-\	.	.	.	.	.	.	.
*	*	*	*	*	*	*	*2\right	*	*	*	*	*
8F\	.	16f\	.	16b-/	16a-\	.	2aa-X\	.	.	.	.	.
.	.	16f\	.	16b-/	16a-\	.	.	.	.	.	.	.
8F\J	.	16f\	.	16b-/	16a-\	.	.	.	.	.	.	.
.	.	16f\JJ	.	16b-/JJ	16a-\JJ	.	.	.	.	.	.	.
8BB-/L	.	16f\LL	.	16b-/LL	16a-\LL	.	.	.	.	.	.	.
.	.	16f\	.	16b-/	16a-\	.	.	.	.	.	.	.
8BB-/	.	16f\	.	16b-/	16a-\	.	.	.	.	.	.	.
.	.	16f\	.	16b-/	16a-\	.	.	.	.	.	.	.
8BB-/	.	16f\	.	16b-/	16a-\	.	8ff\L	.	.	.	.	.
.	.	16f\	.	16b-/	16a-\	.	.	.	.	.	.	.
8BB-/J	.	16f\	.	16b-/	16a-\	.	8dd\J	.	.	.	.	.
.	.	16f\JJ	.	16b-/JJ	16a-\JJ	.	.	.	.	.	.	.
!	!	!	!	!	!	!	!	!	!	!	!LO:LB:g=original	!
=12	=12	=12	=12	=12	=12	=12	=12	=12	=12	=12	=12	=12
8E-\L	.	16g\LL	.	16b-/LL	16g\LL	.	8ee-\L	.	1e-/	.	1g/	.
.	.	16g\	.	16b-/	16g\	.	.	.	.	.	.	.
8E-\	.	16g\	.	16b-/	16g\	.	8gg\J	.	.	.	.	.
.	.	16g\	.	16b-/	16g\	.	.	.	.	.	.	.
8E-\	.	16g\	.	16b-/	16g\	.	4bb-\	.	.	.	.	.
.	.	16g\	.	16b-/	16g\	.	.	.	.	.	.	.
8E-\J	.	16g\	.	16b-/	16g\	.	.	.	.	.	.	.
.	.	16g\JJ	.	16b-/JJ	16g\JJ	.	.	.	.	.	.	.
8G\L	.	16g\LL	.	16b-/LL	16g\LL	.	4r	.	.	.	.	.
.	.	16g\	.	16b-/	16g\	.	.	.	.	.	.	.
8G\	.	16g\	.	16b-/	16g\	.	.	.	.	.	.	.
.	.	16g\	.	16b-/	16g\	.	.	.	.	.	.	.
8G\	.	16g\	.	16b-/	16g\	.	4ee-\	.	.	.	.	.
.	.	16g\	.	16b-/	16g\	.	.	.	.	.	.	.
8G\J	.	16g\	.	16b-/	16g\	.	.	.	.	.	.	.
.	.	16g\JJ	.	16b-/JJ	16g\JJ	.	.	.	.	.	.	.
=13	=13	=13	=13	=13	=13	=13	=13	=13	=13	=13	=13	=13
8F\L	.	16f\LL	.	16b-/LL	16a-\LL	.	(16dd\LL	.	1B-/	.	1f/	.
.	.	16f\	.	16b-/	16a-\	.	16ee-\	.	.	.	.	.
8F\	.	16f\	.	16b-/	16a-\	.	16ff\	.	.	.	.	.
.	.	16f\	.	16b-/	16a-\	.	16gg\JJ)	.	.	.	.	.
8F\	.	16f\	.	16b-/	16a-\	.	2aa-\	.	.	.	.	.
.	.	16f\	.	16b-/	16a-\	.	.	.	.	.	.	.
8F\J	.	16f\	.	16b-/	16a-\	.	.	.	.	.	.	.
.	.	16f\JJ	.	16b-/JJ	16a-\JJ	.	.	.	.	.	.	.
8BB-/L	.	16f\LL	.	16b-/LL	16a-\LL	.	.	.	.	.	.	.
.	.	16f\	.	16b-/	16a-\	.	.	.	.	.	.	.
8BB-/	.	16f\	.	16b-/	16a-\	.	.	.	.	.	.	.
.	.	16f\	.	16b-/	16a-\	.	.	.	.	.	.	.
8BB-/	.	16f\	.	16b-/	16a-\	.	8ff\L	.	.	.	.	.
.	.	16f\	.	16b-/	16a-\	.	.	.	.	.	.	.
8BB-/J	.	16f\	.	16b-/	16a-\	.	8dd\J	.	.	.	.	.
.	.	16f\JJ	.	16b-/JJ	16a-\JJ	.	.	.	.	.	.	.
*	*	*Xtremolo	*	*	*	*	*	*	*	*	*	*
=14	=14	=14	=14	=14	=14	=14	=14	=14	=14	=14	=14	=14
!	!	!	!	!	!	!	!LO:TX:t=P:problem=mixed beam	!LO:DY:t=pia&colon;	!	!	!	!
4E-\	.	4e-\	.	4b-/	4g\	.	16ee-\LL	p	4E-/	.	4e-\	.
.	.	.	.	.	.	.	16e-/	.	.	.	.	.
.	.	.	.	.	.	.	16e-/	.	.	.	.	.
.	.	.	.	.	.	.	16e-/JJ	.	.	.	.	.
*	*	*	*	*	*	*	*tremolo	*	*	*	*	*
4r	.	4r	.	4r	4ryy	.	16e-/LL	.	4r	.	4r	.
.	.	.	.	.	.	.	16e-/	.	.	.	.	.
.	.	.	.	.	.	.	16e-/	.	.	.	.	.
.	.	.	.	.	.	.	16e-/JJ	.	.	.	.	.
2r	.	2r	.	2r	2ryy	.	16e-/LL	.	2r	.	2r	.
.	.	.	.	.	.	.	16e-/	.	.	.	.	.
.	.	.	.	.	.	.	16e-/	.	.	.	.	.
.	.	.	.	.	.	.	16e-/	.	.	.	.	.
.	.	.	.	.	.	.	16e-/	.	.	.	.	.
.	.	.	.	.	.	.	16e-/	.	.	.	.	.
.	.	.	.	.	.	.	16e-/	.	.	.	.	.
.	.	.	.	.	.	.	16e-/JJ	.	.	.	.	.
*	*	*	*	*v	*v	*	*	*	*	*	*	*
=15	=15	=15	=15	=15	=15	=15	=15	=15	=15	=15	=15
*	*	*tremolo	*	*	*	*	*	*	*	*	*
!	!	!	!LO:HP:t=cres	!	!LO:DY:rj	!	!	!	!	!	!
8G\L	f	16B-X/LL	<	16d-X/LL	p	16e-/LL	f	[>1E-/	.	[1e-/	.
.	.	16B-X/	.	16d-X/	.	16e-/	.	.	.	.	.
8G\	.	16B-X/	.	16d-X/	.	16e-/	.	.	.	.	.
.	.	16B-X/	.	16d-X/	.	16e-/JJ	.	.	.	.	.
8G\	.	16B-X/	.	16d-X/	.	16e-/LL	.	.	.	.	.
.	.	16B-X/	.	16d-X/	.	16e-/	.	.	.	.	.
8G\J	.	16B-X/	.	16d-X/	.	16e-/	.	.	.	.	.
.	.	16B-X/JJ	.	16d-X/JJ	.	16e-/JJ	.	.	.	.	.
8G\L	.	16B-/LL	.	16d-/LL	.	16e-/LL	.	.	.	.	.
.	.	16B-/	.	16d-/	.	16e-/	.	.	.	.	.
8G\	.	16B-/	.	16d-/	.	16e-/	.	.	.	.	.
.	.	16B-/	.	16d-/	.	16e-/	.	.	.	.	.
8G\	.	16B-/	.	16d-/	.	16e-/	.	.	.	.	.
.	.	16B-/	.	16d-/	.	16e-/	.	.	.	.	.
8G\J	.	16B-/	.	16d-/	.	16e-/	.	.	.	.	.
.	.	16B-/JJ	.	16d-/JJ	.	16e-/JJ	.	.	.	.	.
=16	=16	=16	=16	=16	=16	=16	=16	=16	=16	=16	=16
4A-X\	.	4A-X/	.	16c/LL	.	16e-/LL	.	4E-/]	.	4e-\]	.
.	.	.	.	16c/	.	16e-/	.	.	.	.	.
.	.	.	.	16c/	.	16e-/	.	.	.	.	.
.	.	.	.	16c/	.	16e-/	.	.	.	.	.
4r	.	4r	.	16c/	.	16e-/	.	4r	.	4r	.
.	.	.	.	16c/	.	16e-/	.	.	.	.	.
.	.	.	.	16c/	.	16e-/	.	.	.	.	.
.	.	.	.	16c/JJ	.	16e-/JJ	.	.	.	.	.
!	!	!	!	!	!	!	!LO:DY:rj	!	!	!	!
2r	.	2r	.	16c/LL	.	16e-/LL	p	2r	.	2r	.
.	.	.	.	16c/	.	16e-/	.	.	.	.	.
.	.	.	.	16c/	.	16e-/	.	.	.	.	.
.	.	.	.	16c/	.	16e-/JJ	.	.	.	.	.
.	.	.	.	16c/	.	16en/LL	.	.	.	.	.
.	.	.	.	16c/	.	16en/	.	.	.	.	.
.	.	.	.	16c/	.	16en/	.	.	.	.	.
.	.	.	.	16c/JJ	.	16en/JJ	.	.	.	.	.
=17	=17	=17	=17	=17	=17	=17	=17	=17	=17	=17	=17
8An\L	f	16c\LL	.	16e-/LL	f	16f/LL	f	(>1f/	.	[1f/	.
.	.	16c\	.	16e-/	.	16f/	.	.	.	.	.
8An\	.	16c\	.	16e-/	.	16f/	.	.	.	.	.
.	.	16c\	.	16e-/	.	16f/	.	.	.	.	.
8An\	.	16c\	.	16e-/	.	16f/	.	.	.	.	.
.	.	16c\	.	16e-/	.	16f/	.	.	.	.	.
8An\J	.	16c\	.	16e-/	.	16f/	.	.	.	.	.
.	.	16c\JJ	.	16e-/JJ	.	16f/JJ	.	.	.	.	.
8A\L	.	16c\LL	.	16e-/LL	.	16f/LL	.	.	.	.	.
.	.	16c\	.	16e-/	.	16f/	.	.	.	.	.
8A\	.	16c\	.	16e-/	.	16f/	.	.	.	.	.
.	.	16c\	.	16e-/	.	16f/	.	.	.	.	.
8A\	.	16c\	.	16e-/	.	16f/	.	.	.	.	.
.	.	16c\	.	16e-/	.	16f/	.	.	.	.	.
8A\J	.	16c\	.	16e-/	.	16f/	.	.	.	.	.
.	.	16c\JJ	.	16e-/JJ	.	16f/JJ	.	.	.	.	.
!	!	!	!	!	!	!LO:LB:g=original	!	!	!	!	!
=18	=18	=18	=18	=18	=18	=18	=18	=18	=18	=18	=18
!	!	!	!	!	!LO:DY:rj:t=p.	!	!	!	!	!	!
4B-\	.	4B-/	.	16d/LL	p	16f/LL	.	4B-/)	.	4f\]	.
.	.	.	.	16d/	.	16f/	.	.	.	.	.
.	.	.	.	16d/	.	16f/	.	.	.	.	.
.	.	.	.	16d/	.	16f/	.	.	.	.	.
4r	.	4r	.	16d/	.	16f/	.	4r	.	4r	.
.	.	.	.	16d/	.	16f/	.	.	.	.	.
.	.	.	.	16d/	.	16f/	.	.	.	.	.
.	.	.	.	16d/JJ	.	16f/JJ	.	.	.	.	.
2r	.	2r	.	16d/LL	.	16f/LL	p	2r	.	2r	.
.	.	.	.	16d/	.	16f/	.	.	.	.	.
.	.	.	.	16d/	.	16f/	.	.	.	.	.
.	.	.	.	16d/	.	16f/JJ	.	.	.	.	.
.	.	.	.	16d/	.	16f#X/LL	.	.	.	.	.
.	.	.	.	16d/	.	16f#X/	.	.	.	.	.
.	.	.	.	16d/	.	16f#X/	.	.	.	.	.
.	.	.	.	16d/JJ	.	16f#X/JJ	.	.	.	.	.
=19	=19	=19	=19	=19	=19	=19	=19	=19	=19	=19	=19
8Bn\L	.	16d\LL	.	16d/LL	f	16g/LL	f	1G/	.	1g/	.
.	.	16d\	.	16d/	.	16g/	.	.	.	.	.
8Bn\	.	16d\	.	16d/	.	16g/	.	.	.	.	.
.	.	16d\	.	16d/	.	16g/	.	.	.	.	.
8Bn\	.	16d\	.	16d/	.	16g/	.	.	.	.	.
.	.	16d\	.	16d/	.	16g/	.	.	.	.	.
8Bn\J	.	16d\	.	16d/	.	16g/	.	.	.	.	.
.	.	16d\JJ	.	16d/JJ	.	16g/JJ	.	.	.	.	.
!LO:LB:g=original	!	!	!	!	!	!	!	!	!	!	!
8B\L	.	16d\LL	.	16d/LL	.	16g/LL	.	.	.	.	.
.	.	16d\	.	16d/	.	16g/	.	.	.	.	.
8B\	.	16d\	.	16d/	.	16g/	.	.	.	.	.
.	.	16d\	.	16d/	.	16g/	.	.	.	.	.
8B\	.	16d\	.	16d/	.	16g/	.	.	.	.	.
.	.	16d\	.	16d/	.	16g/	.	.	.	.	.
8B\J	.	16d\	.	16d/	.	16g/	.	.	.	.	.
.	.	16d\JJ	.	16d/JJ	.	16g/JJ	.	.	.	.	.
*Xtremolo	*	*Xtremolo	*	*	*	*	*	*	*	*	*
!	!	!	!	!LO:LB:g=original	!	!	!	!	!	!	!
=20	=20	=20	=20	=20	=20	=20	=20	=20	=20	=20	=20
!LO:TX:t=P:problem=mixed beam	!	!	!	!	!	!	!	!LO:TX:a:t=1	!	!LO:TX:a:t=1	!
8c\L	.	4c\	.	16e-X/LL	.	16g/LL	.	1r	.	1r	.
.	.	.	.	16e-X/	.	16g/	.	.	.	.	.
8C/J	.	.	.	16e-X/	.	16g/	.	.	.	.	.
.	.	.	.	16e-X/	.	16g/JJ	.	.	.	.	.
4c\	.	4cc\	.	16e-X/	.	16a-/LL	.	.	.	.	.
.	.	.	.	16e-X/	.	16a-/	.	.	.	.	.
.	.	.	.	16e-X/	.	16a-/	.	.	.	.	.
.	.	.	.	16e-X/JJ	.	16a-/JJ	.	.	.	.	.
!LO:TX:t=P:problem=mixed beam	!	!LO:LB:g=original	!	!	!	!	!	!	!	!	!
8d\L	.	8r	.	16f/LL	.	16a-/LL	.	.	.	.	.
.	.	.	.	16f/	.	16a-/	.	.	.	.	.
8D/J	.	8d\	.	16f/	.	16a-/	.	.	.	.	.
.	.	.	.	16f/	.	16a-/JJ	.	.	.	.	.
4d\	.	4dd\	.	16f/	.	16b-/LL	.	.	.	.	.
.	.	.	.	16f/	.	16b-/	.	.	.	.	.
.	.	.	.	16f/	.	16b-/	.	.	.	.	.
.	.	.	.	16f/JJ	.	16b-/JJ	.	.	.	.	.
!	!	!	!	!	!	!	!	!LO:LB:g=original	!	!	!
=21	=21	=21	=21	=21	=21	=21	=21	=21	=21	=21	=21
4.e-X\	.	4.ee-\	.	16e-/LL	.	16g/LL	.	4E-/	.	4e-\	.
.	.	.	.	16e-/	.	16g/	.	.	.	.	.
.	.	.	.	16e-/	.	16g/	.	.	.	.	.
.	.	.	.	16e-/JJ	.	16g/JJ	.	.	.	.	.
.	.	.	.	16g/LL	.	16b-\LL	.	4r	.	4r	.
.	.	.	.	16g/	.	16b-\	.	.	.	.	.
8B-X\	.	8b-\	.	16g/	.	16b-\	.	.	.	.	.
.	.	.	.	16g/JJ	.	16b-\JJ	.	.	.	.	.
*	*	*	*	*Xtremolo	*	*Xtremolo	*	*	*	*	*
8e-\L	.	8ee-\L	.	16e-/LL	.	16ee-\LL	.	2r	.	2r	.
.	.	.	.	16e-/	.	16ee-\	.	.	.	.	.
8B-\	.	8b-\	.	16b-/ 16g/	.	16b-\	.	.	.	.	.
.	.	.	.	16b-/JJ 16g/	.	16b-\JJ	.	.	.	.	.
8G\	.	8g\	.	16g/LL	.	16g/LL	.	.	.	.	.
.	.	.	.	16g/	.	16g/	.	.	.	.	.
8E-X\J	.	8e-\J	.	16e-/	.	16e-/	.	.	.	.	.
.	.	.	.	16e-/JJ	.	16e-/JJ	.	.	.	.	.
=22	=22	=22	=22	=22	=22	=22	=22	=22	=22	=22	=22
*	*	*	*	*tremolo	*	*	*	*	*	*	*
4BB-/	.	4b-\	.	16f/ 16B-/LL	.	4B-/	.	4B-/	.	4f\	.
.	.	.	.	16f/ 16B-/	.	.	.	.	.	.	.
.	.	.	.	16f/ 16B-/	.	.	.	.	.	.	.
.	.	.	.	16f/ 16B-/	.	.	.	.	.	.	.
4r	.	4r	.	16f/ 16B-/	.	16dd\LL	.	4B-/	.	4f\	.
.	.	.	.	16f/ 16B-/	.	16ee-X\	.	.	.	.	.
.	.	.	.	16f/ 16B-/	.	16ffn\	.	.	.	.	.
.	.	.	.	16f/ 16B-/JJ	.	16gg\JJ	.	.	.	.	.
4B-\	.	4B-/	.	16f/ 16B-/LL	.	16aa-\LL	.	4r	.	4r	.
.	.	.	.	16f/ 16B-/	.	16gg\	.	.	.	.	.
.	.	.	.	16f/ 16B-/	.	16ff\	.	.	.	.	.
.	.	.	.	16f/ 16B-/	.	16ee-\JJ	.	.	.	.	.
4r	.	4r	.	16f/ 16B-/	.	16dd\LL	.	4B-/	.	4f\	.
.	.	.	.	16f/ 16B-/	.	16cc\	.	.	.	.	.
.	.	.	.	16f/ 16B-/	.	16b-\	.	.	.	.	.
.	.	.	.	16f/ 16B-/JJ	.	16a-\JJ	.	.	.	.	.
=23	=23	=23	=23	=23	=23	=23	=23	=23	=23	=23	=23
*	*	*	*	*	*	*tremolo	*	*	*	*	*
4.e-\	.	4.ee-\	.	16e-/LL	.	16g/LL	.	4e-\	.	4g\	.
.	.	.	.	16e-/	.	16g/	.	.	.	.	.
.	.	.	.	16e-/	.	16g/	.	.	.	.	.
.	.	.	.	16e-/JJ	.	16g/JJ	.	.	.	.	.
.	.	.	.	16b-\LL	.	16b-\LL	.	4e-\	.	4g\	.
.	.	.	.	16b-\	.	16b-\	.	.	.	.	.
8B-\	.	8b-\	.	16b-\	.	16b-\	.	.	.	.	.
.	.	.	.	16b-\JJ	.	16b-\JJ	.	.	.	.	.
*	*	*	*	*Xtremolo	*	*Xtremolo	*	*	*	*	*
8e-\L	.	8ee-\L	.	16ee-\LL	.	16ee-\LL	.	4r	.	4r	.
.	.	.	.	16ee-\	.	16ee-\	.	.	.	.	.
8B-\	.	8b-\	.	16b-\	.	16b-\	.	.	.	.	.
.	.	.	.	16b-\JJ	.	16b-\JJ	.	.	.	.	.
!	!	!	!	!	!	!LO:LB:g=original	!	!	!	!LO:LB:g=original	!
8G\	.	8g\	.	16g/LL	.	16g/LL	.	4e-\	.	4g\	.
.	.	.	.	16g/	.	16g/	.	.	.	.	.
8E-\J	.	8e-\J	.	16e-/	.	16e-/	.	.	.	.	.
.	.	.	.	16e-/JJ	.	16e-/JJ	.	.	.	.	.
=24	=24	=24	=24	=24	=24	=24	=24	=24	=24	=24	=24
!LO:TX:t=P:problem=mixed beam	!	!LO:TX:t=P:problem=mixed beam	!	!	!	!	!	!	!	!	!
8BB-/L	.	8B-/L	.	4f/ 4B-/	.	4b-/ 4f/ 4B-/	.	4B-/	.	4f\	.
8B-\	.	8b-\	.	.	.	.	.	.	.	.	.
8F\	.	8f\	.	4f/ 4B-/	.	4b-/ 4f/ 4B-/	.	4B-/	.	4f\	.
8D\J	.	8d\J	.	.	.	.	.	.	.	.	.
4BB-/	.	4B-/	.	4f/ 4B-/	.	4b-/ 4f/ 4B-/	.	4B-/	.	4f\	.
4r	.	4r	.	4r	.	4r	.	4r	.	4r	.
=25	=25	=25	=25	=25	=25	=25	=25	=25	=25	=25	=25
!LO:TX:a:t=Violon	!LO:DY:t=pia	!	!	!	!LO:DY:t=pia	!LO:TX:b:i:t=Dol	!	!LO:TX:a:t=13	!	!LO:TX:a:t=13	!
4BB-/	p	8r	.	8r	p	2ff\	.	00r	.	00r	.
!	!	!	!LO:DY:t=pia&colon;	!	!	!	!	!	!	!	!
.	.	(8d'\L	p	(8f'/L	.	.	.	.	.	.	.
4r	.	8d'\	.	8f'/	.	.	.	.	.	.	.
.	.	8d'\J)	.	8f'/J)	.	.	.	.	.	.	.
!LO:TX:a:t=Cello	!	!	!	!	!	!LO:TX:t=P:problem=zapis łuku niejednoznaczny	!	!	!	!	!
4B-\	.	4d\|	.	4f/	.	(8ee-\L	.	.	.	.	.
.	.	.	.	.	.	8dd\	p	.	.	.	.
4r	.	4r	.	4r	.	8cc\	.	.	.	.	.
.	.	.	.	.	.	8b-\J)	.	.	.	.	.
!LO:LB:g=original	!	!	!	!LO:LB:g=original	!	!	!	!	!	!	!
=26	=26	=26	=26	=26	=26	=26	=26	=26	=26	=26	=26
.	.	.	.	.	.	8qqcc/	.	.	.	.	.
4C/	.	8r	.	8r	.	8b-\L	.	.	.	.	.
.	.	(8e-'\L	.	(8f'/L	.	8an\J	.	.	.	.	.
4r	.	8e-'\	.	8f'/	.	4a/	.	.	.	.	.
.	.	8e-'\J)	.	8f'/J)	.	.	.	.	.	.	.
4c\	.	4e-\	.	4f/	.	8r	.	.	.	.	.
!	!	!	!	!	!	!LO:TX:t=P:problem=zapis łuku niejednoznaczny	!	!	!	!	!
.	.	.	.	.	.	(8f/L	.	.	.	.	.
4r	.	4r	.	4r	.	8a/	.	.	.	.	.
.	.	.	.	.	.	8cc/J)	.	.	.	.	.
!	!	!LO:LB:g=original	!	!	!	!	!	!	!	!	!
=27	=27	=27	=27	=27	=27	=27	=27	=27	=27	=27	=27
.	.	.	.	.	.	8qqff/	.	.	.	.	.
4F\	.	8r	.	8r	.	2ee-\	.	.	.	.	.
.	.	(8e-\L 8c'\	.	(8f'/L	.	.	.	.	.	.	.
4r	.	8e-\ 8c'\	.	8f'/	.	.	.	.	.	.	.
.	.	8e-\J 8c'\)	.	8f'/J)	.	.	.	.	.	.	.
4FF/	.	4e-\ 4c\	.	4f/	.	(8dd\L	.	.	.	.	.
.	.	.	.	.	.	8cc\	.	.	.	.	.
4r	.	4r	.	4r	.	8b-\	.	.	.	.	.
!	!	!	!	!	!	!LO:SIC:v:s=8an\J)	!	!	!	!	!
.	.	.	.	.	.	8a-\J)	.	.	.	.	.
=28	=28	=28	=28	=28	=28	=28	=28	=28	=28	=28	=28
.	.	.	.	.	.	(<8qqan/	.	.	.	.	.
4BB-/	.	8r	.	8r	.	4b-\)	.	.	.	.	.
.	.	(8d'\L	.	(8f'/L	.	.	.	.	.	.	.
4r	.	8d'\	.	8f'/	.	4b-\	.	.	.	.	.
.	.	8d'\J)	.	8f'/J)	.	.	.	.	.	.	.
4B-\	.	4d\	.	4f/	.	8r	.	.	.	.	.
.	.	.	.	.	.	8f/L|	.	.	.	.	.
4r	.	4r	.	4r	.	(8b-/	.	.	.	.	.
.	.	.	.	.	.	8dd/J)	.	.	.	.	.
=29	=29	=29	=29	=29	=29	=29	=29	=29	=29	=29	=29
4BB-/	.	8r	.	8r	.	2ff\	.	00r	.	00r	.
.	.	(8d'\L	.	(8f'/L	.	.	.	.	.	.	.
4r	.	8d'\	.	8f'/	.	.	.	.	.	.	.
.	.	8d'\J)	.	8f'/J)	.	.	.	.	.	.	.
4B-\	.	4d\	.	4f/	.	(8ee-\L	.	.	.	.	.
.	.	.	.	.	.	8dd\	.	.	.	.	.
4r	.	4r	.	4r	.	8cc\	.	.	.	.	.
.	.	.	.	.	.	8b-\J)	.	.	.	.	.
=30	=30	=30	=30	=30	=30	=30	=30	=30	=30	=30	=30
.	.	.	.	.	.	(8qqbn/	.	.	.	.	.
4E-X\	.	8r	.	8r	.	4cc\)	.	.	.	.	.
.	.	(8e-'\L	.	(8g'/L	.	.	.	.	.	.	.
4r	.	8e-'\	.	8g'/	.	4cc\	.	.	.	.	.
.	.	8e-'\J)	.	8g'/J)	.	.	.	.	.	.	.
4E-\	.	4e-\	.	4g/	.	8r	.	.	.	.	.
!	!	!	!	!	!	!LO:LB:g=original	!	!	!	!	!
.	.	.	.	.	.	8ee-X\L|	.	.	.	.	.
4r	.	4r	.	4r	.	(8b\	.	.	.	.	.
.	.	.	.	.	.	8cc\J)	.	.	.	.	.
=31	=31	=31	=31	=31	=31	=31	=31	=31	=31	=31	=31
*	*	*^	*	*	*	*	*	*	*	*	*
4F\	.	8r	2ryy	.	8r	.	(8b-X\L	.	.	.	.	.
!	!	!	!	!	!	!	!LO:SIC:v:s=8an	!	!	!	!	!
.	.	(8e-\L 8c'\	.	.	(8f'/L	.	8a-\J)	.	.	.	.	.
4r	.	8e-\ 8c'\	.	.	8f'/	.	2ccc\	.	.	.	.	.
.	.	8e-\J 8c'\)	.	.	8f'/J)	.	.	.	.	.	.	.
4An\	.	4e-/	4c\	.	4f/	.	.	.	.	.	.	.
4r	.	4r	4ryy	.	4r	.	(8ee-\L	.	.	.	.	.
.	.	.	.	.	.	.	8cc\J)	.	.	.	.	.
*	*	*v	*v	*	*	*	*	*	*	*	*	*
=32	=32	=32	=32	=32	=32	=32	=32	=32	=32	=32	=32
4B-\	.	8r	.	8r	.	(8cc#X\L	.	.	.	.	.
.	.	(8d'\L	.	8f/L	.	8dd\J)	.	.	.	.	.
4r	.	8d'\	.	8f/	.	4dd\	.	.	.	.	.
.	.	8d'\J)	.	8f/J	.	.	.	.	.	.	.
4BB-/	.	4d\	.	4f/	.	8r	.	.	.	.	.
.	.	.	.	.	.	8e-/L	.	.	.	.	.
4r	.	4r	.	4r	.	(8b-X/	.	.	.	.	.
.	.	.	.	.	.	8dd/J)	.	.	.	.	.
!	!	!	!	!LO:LB:g=original	!	!	!	!	!	!	!
=33	=33	=33	=33	=33	=33	=33	=33	=33	=33	=33	=33
!	!	!	!	!	!	!LO:TX:t=P:problem=wykreślone dwa takty	!	!	!	!	!
4D\	.	8r	.	8r	.	2ff\	.	00r	.	00r	.
.	.	(8B-'/L	.	(8f'/L	.	.	.	.	.	.	.
4r	.	8B-'/	.	8f'/	.	.	.	.	.	.	.
.	.	8B-'/J)	.	8f'/J)	.	.	.	.	.	.	.
!	!	!LO:LB:g=original	!	!	!	!LO:TX:t=P:problem=zapis łuku niejednoznaczny	!	!	!	!	!
4D\	.	4B-/	.	4f/	.	(8ee-X\L	.	.	.	.	.
.	.	.	.	.	.	8dd\	.	.	.	.	.
4r	.	4r	.	4r	.	8cc\)	.	.	.	.	.
.	.	.	.	.	.	8b-X\J	.	.	.	.	.
=34	=34	=34	=34	=34	=34	=34	=34	=34	=34	=34	=34
4E-X\	.	8r	.	8r	.	(8bn\L	.	.	.	.	.
.	.	(8e-'\L	.	(8g'/L	.	8cc\J)	.	.	.	.	.
4r	.	8e-'\	.	8g'/	.	4cc\	.	.	.	.	.
.	.	8e-'\J)	.	8g'/J)	.	.	.	.	.	.	.
!LO:LB:g=original	!	!	!	!	!	!	!	!	!	!	!
4E-\	.	4e-\	.	4g/	.	8r	.	.	.	.	.
.	.	.	.	.	.	8ee-X\L	.	.	.	.	.
4r	.	4r	.	4r	.	8b\	.	.	.	.	.
.	.	.	.	.	.	8cc\J	.	.	.	.	.
!	!	!	!	!	!	!LO:LB:g=original	!	!	!	!	!
=35	=35	=35	=35	=35	=35	=35	=35	=35	=35	=35	=35
4F\	.	8r	.	8r	.	(8b-X/L	.	.	.	.	.
.	.	(8c'\L	.	(8e-'/L	.	8an/J)	.	.	.	.	.
4r	.	8c'\	.	8e-'/	.	4.a/	.	.	.	.	.
.	.	8c'\J)	.	8e-'/J)	.	.	.	.	.	.	.
4FF/	.	4c\	.	4e-/	.	.	.	.	.	.	.
.	.	.	.	.	.	8gg\L	.	.	.	.	.
4r	.	4r	.	4r	.	8ff\	.	.	.	.	.
.	.	.	.	.	.	8a\J	.	.	.	.	.
=36	=36	=36	=36	=36	=36	=36	=36	=36	=36	=36	=36
.	.	.	.	.	.	8qqcc/	.	.	.	.	.
4BB-/	.	8r	.	8r	.	4b-\	.	.	.	.	.
.	.	(8d'\L	.	(8f'/L	.	.	.	.	.	.	.
4r	.	8d'\	.	8f'/	.	4b-\	.	.	.	.	.
.	.	8d'\J)	.	8f'/J)	.	.	.	.	.	.	.
4B-\	.	4d\	.	4f/	.	8r	.	.	.	.	.
.	.	.	.	.	.	8ff\L	.	.	.	.	.
4r	.	4r	.	4r	.	8dd\	.	.	.	.	.
.	.	.	.	.	.	8b-X\J	.	.	.	.	.
=37	=37	=37	=37	=37	=37	=37	=37	=37	=37	=37	=37
.	.	.	.	.	.	8qqcc/	.	.	.	.	.
4F\	.	8r	.	8r	.	8b-\L	.	1r	.	1r	.
!	!	!	!	!	!	!LO:SIC:v:s=8an	!	!	!	!	!
.	.	(8c'\L	.	(8e-'/L	.	8a-\J	.	.	.	.	.
!	!	!	!	!	!	!LO:SIC:v:s=4an	!	!	!	!	!
4r	.	8c'\	.	8e-'/	.	4a-\	.	.	.	.	.
.	.	8c'\J)	.	8e-'/J)	.	.	.	.	.	.	.
4FF/	.	4c\	.	4e-/	.	8r	.	.	.	.	.
!	!	!	!	!	!	!LO:TX:t=P:problem=mixed beam	!	!	!	!	!
.	.	.	.	.	.	8gg\L|	.	.	.	.	.
4r	.	4r	.	4r	.	(8ff\	.	.	.	.	.
.	.	.	.	.	.	8a-/J)	.	.	.	.	.
=38	=38	=38	=38	=38	=38	=38	=38	=38	=38	=38	=38
!	!	!	!	!	!	!	!LO:HP:t=cres	!	!	!	!LO:HP:t=cres
4BB-/	.	4d\	.	4f/	.	8b-\	<	[>1B-/	<	[<1b-\	<
.	.	.	.	.	.	4b-\	.	.	.	.	.
4r	.	4r	.	4r	.	.	.	.	.	.	.
.	.	.	.	.	.	4b-\	.	.	.	.	.
2r	.	2r	.	2r	.	.	.	.	.	.	.
.	.	.	.	.	.	4b-\	.	.	.	.	.
.	.	.	.	.	.	8b-\	.	.	.	.	.
=39	=39	=39	=39	=39	=39	=39	=39	=39	=39	=39	=39
!LO:TX:b:t=Violon	!	!LO:TX:a:t=1	!	!	!	!	!	!	!	!	!
4BB-/	.	1r	.	8an/	<	8cc\	.	1B-/_>	.	1b-\_<	.
.	.	.	.	4a/	.	4cc\	.	.	.	.	.
4r	.	.	.	.	.	.	.	.	.	.	.
.	.	.	.	4a/	.	4cc\	.	.	.	.	.
4B-\	.	.	.	.	.	.	.	.	.	.	.
.	.	.	.	4a/	.	4cc\	.	.	.	.	.
4r	.	.	.	.	.	.	.	.	.	.	.
.	.	.	.	8a/	.	8cc\	.	.	.	.	.
!	!	!	!	!LO:LB:g=original	!	!	!	!	!	!	!
=40	=40	=40	=40	=40	=40	=40	=40	=40	=40	=40	=40
!	!	!	!LO:HP:t=cres	!	!	!	!	!	!	!	!
4BB-/	.	4B-/	<	8a-X/	.	8dd\	rf	1B-/_>	.	1b-\_<	.
.	.	.	.	4a-/	.	4dd\	.	.	.	.	.
4r	<	4r	.	.	.	.	.	.	.	.	.
.	.	.	.	4a-/	.	4dd\	.	.	.	.	.
4B-\	.	4b-\	.	.	.	.	.	.	.	.	.
.	.	.	.	4a-/	.	4dd\	.	.	.	.	.
4r	.	4r	.	.	.	.	.	.	.	.	.
.	.	.	.	8a-/	.	8dd\	.	.	.	.	.
!	!	!LO:LB:g=original	!	!	!	!	!	!	!	!	!
=41	=41	=41	=41	=41	=41	=41	=41	=41	=41	=41	=41
4BB-/	.	4B-/	.	8g/	fp	8ee-X\	.	1B-/_>	.	1b-\_<	rf
.	.	.	.	4g/	.	4ee-\	.	.	.	.	.
4r	.	4r	.	.	.	.	.	.	.	.	.
.	.	.	.	4g/	.	4ee-\	.	.	.	.	.
4B-\	.	4b-\	.	.	.	.	.	.	.	.	.
.	.	.	.	4g/	.	4ee-\	.	.	.	.	.
4r	.	4r	.	.	.	.	.	.	.	.	.
.	.	.	.	8g/	.	8ee-\	.	.	.	.	.
!	!	!	!	!	!	!LO:LB:g=original	!	!	!	!	!
=42	=42	=42	=42	=42	=42	=42	=42	=42	=42	=42	=42
4BB-/	.	4B-/	.	8dd\	rf	8ff\	.	1B-/_>	.	1b-\]	.
.	.	.	.	4dd\	.	4ff\	.	.	.	.	.
4r	.	4r	.	.	.	.	.	.	.	.	.
.	.	.	.	4dd\	.	4ff\	.	.	.	.	.
4B-\	.	4b-\	.	.	.	.	.	.	.	.	.
.	.	.	.	4dd\	.	4ff\	.	.	.	.	.
4r	.	4r	.	.	.	.	.	.	.	.	.
.	.	.	.	8dd\	.	8ff\	.	.	.	.	.
!LO:LB:g=original	!	!	!	!	!	!	!	!LO:LB:g=original	!	!	!
=43	=43	=43	=43	=43	=43	=43	=43	=43	=43	=43	=43
*tremolo	*	*tremolo	*	*	*	*	*	*	*	*	*
!	!LO:DY:t=ffor	!	!	!	!	!	!LO:DY:t=ffortiſsimo	!LO:TX:t=P:problem=brak zakończenia ligatury	!	!	!
8E-\L	ff	8e-\L	f	16ee-\LL	.	16gg\LL	ff	4B-/]	.	4b-\	.
.	.	.	.	16b-\	f	16aa-X\	.	.	.	.	.
8E-\	.	8e-\	.	16b-\	.	16bb-\	.	.	.	.	.
.	.	.	.	16b-\JJ	.	16aa-\JJ	.	.	.	.	.
*	*	*	*	*tremolo	*	*	*	*	*	*	*
8E-\	.	8e-\	.	16b-\LL	.	16gg\LL	.	4r	.	4r	.
.	.	.	.	16b-\	.	16aa-\	.	.	.	.	.
8E-\J	.	8e-\J	.	16b-\	.	16bb-\	.	.	.	.	.
.	.	.	.	16b-\JJ	.	16aa-\JJ	.	.	.	.	.
8E-\L	.	8e-\L	.	16b-\LL	.	4gg\	.	2r	.	2r	.
.	.	.	.	16b-\	.	.	.	.	.	.	.
8E-\	.	8e-\	.	16b-\	.	.	.	.	.	.	.
.	.	.	.	16b-\	.	.	.	.	.	.	.
8E-\	.	8e-\	.	16b-\	.	4r	.	.	.	.	.
.	.	.	.	16b-\	.	.	.	.	.	.	.
8E-\J	.	8e-\J	.	16b-\	.	.	.	.	.	.	.
.	.	.	.	16b-\JJ	.	.	.	.	.	.	.
=44	=44	=44	=44	=44	=44	=44	=44	=44	=44	=44	=44
8E-\L	.	8e-\L	.	16ff\ 16cc\LL	.	16aan\LL	.	(>1f/	f	1cc\	.
.	.	.	.	16ff\ 16cc\	.	16bb-\	.	.	.	.	.
8E-\	.	8e-\	.	16ff\ 16cc\	.	16ccc\	rf	.	.	.	.
.	.	.	.	16ff\ 16cc\	.	16bb-\JJ	.	.	.	.	.
8E-\	.	8e-\	.	16ff\ 16cc\	.	16aa\LL	.	.	.	.	.
.	.	.	.	16ff\ 16cc\	.	16bb-\	.	.	.	.	.
8E-\J	.	8e-\J	.	16ff\ 16cc\	.	16ccc\	.	.	.	.	.
.	.	.	.	16ff\ 16cc\JJ	.	16bb-\JJ	.	.	.	.	.
8E-\L	.	8e-\L	.	16ff\ 16cc\LL	.	4aa\	.	.	.	.	.
.	.	.	.	16ff\ 16cc\	.	.	.	.	.	.	.
8E-\	.	8e-\	.	16ff\ 16cc\	.	.	.	.	.	.	.
.	.	.	.	16ff\ 16cc\	.	.	.	.	.	.	.
8E-\	.	8e-\	.	16ff\ 16cc\	.	4r	.	.	.	.	.
.	.	.	.	16ff\ 16cc\	.	.	.	.	.	.	.
8E-\J	.	8e-\J	.	16ff\ 16cc\	.	.	.	.	.	.	.
.	.	.	.	16ff\ 16cc\JJ	.	.	.	.	.	.	.
=45	=45	=45	=45	=45	=45	=45	=45	=45	=45	=45	=45
8D\L	.	8d\L	.	16ff\ 16b-\LL	.	16bb-\LL	.	1B-/)	.	1b-\	.
.	.	.	.	16ff\ 16b-\	.	16ccc\	.	.	.	.	.
8D\	.	8d\	.	16ff\ 16b-\	.	16ddd\	.	.	.	.	.
.	.	.	.	16ff\ 16b-\	.	16ccc\JJ	.	.	.	.	.
8D\	.	8d\	.	16ff\ 16b-\	.	16bb-\LL	.	.	.	.	.
.	.	.	.	16ff\ 16b-\	.	16ccc\	.	.	.	.	.
8D\J	.	8d\J	.	16ff\ 16b-\	.	16ddd\	.	.	.	.	.
.	.	.	.	16ff\ 16b-\JJ	.	16ccc\JJ	.	.	.	.	.
8D\L	.	8d\L	.	16ff\ 16b-\LL	.	4bb-\	.	.	.	.	.
.	.	.	.	16ff\ 16b-\	.	.	.	.	.	.	.
8D\	.	8d\	.	16ff\ 16b-\	.	.	.	.	.	.	.
.	.	.	.	16ff\ 16b-\	.	.	.	.	.	.	.
8D\	.	8d\	.	16ff\ 16b-\	.	4r	.	.	.	.	.
.	.	.	.	16ff\ 16b-\	.	.	.	.	.	.	.
8D\J	.	8d\J	.	16ff\ 16b-\	.	.	.	.	.	.	.
.	.	.	.	16ff\ 16b-\JJ	.	.	.	.	.	.	.
=46	=46	=46	=46	=46	=46	=46	=46	=46	=46	=46	=46
8AAn/L	.	8f\L	.	16cc\LL	.	2ccc\	.	1f/	.	1f/	.
.	.	.	.	16cc\	.	.	.	.	.	.	.
8AAn/	.	8f\	.	16cc\	.	.	.	.	.	.	.
.	.	.	.	16cc\	.	.	.	.	.	.	.
8AAn/	.	8f\	.	16cc\	.	.	.	.	.	.	.
.	.	.	.	16cc\	.	.	.	.	.	.	.
8AAn/J	.	8f\J	.	16cc\	.	.	.	.	.	.	.
.	.	.	.	16cc\JJ	.	.	.	.	.	.	.
8An\L	.	8f\L	.	16cc\LL	.	2ee-X\	.	.	.	.	.
.	.	.	.	16cc\	.	.	.	.	.	.	.
8An\	.	8f\	.	16cc\	.	.	.	.	.	.	.
.	.	.	.	16cc\	.	.	.	.	.	.	.
8An\	.	8f\	.	16cc\	.	.	.	.	.	.	.
.	.	.	.	16cc\	.	.	.	.	.	.	.
8An\J	.	8f\J	.	16cc\	.	.	.	.	.	.	.
.	.	.	.	16cc\JJ	.	.	.	.	.	.	.
=47	=47	=47	=47	=47	=47	=47	=47	=47	=47	=47	=47
!	!	!	!	!	!LO:DY:t=ffor	!	!	!	!	!	!
8B-\L	.	8b-\L	.	16dd\LL	ff	16dd\LL	.	[1B-/	.	[<1b-\	.
.	.	.	.	16dd\	.	16b-\	.	.	.	.	.
8B-\	.	8b-\	.	16dd\	.	16dd\	.	.	.	.	.
.	.	.	.	16dd\	.	16ff\JJ	.	.	.	.	.
!	!	!	!	!	!	!LO:LB:g=original	!	!	!	!	!
8B-\	.	8b-\	.	16dd\	.	16bb-\LL	.	.	.	.	.
.	.	.	.	16dd\	.	16ff\	.	.	.	.	.
8B-\J	.	8b-\J	.	16dd\	.	16dd\	.	.	.	.	.
.	.	.	.	16dd\JJ	.	16b-\JJ	.	.	.	.	.
8An\L	.	8an\L	.	16dd\LL	.	4bb-\	.	.	.	.	.
.	.	.	.	16dd\	.	.	.	.	.	.	.
8An\	.	8an\	.	16dd\	.	.	.	.	.	.	.
.	.	.	.	16dd\	.	.	.	.	.	.	.
8An\	.	8an\	.	16dd\	.	4r	.	.	.	.	.
.	.	.	.	16dd\	.	.	.	.	.	.	.
8An\J	.	8an\J	.	16dd\	.	.	.	.	.	.	.
.	.	.	.	16dd\JJ	.	.	.	.	.	.	.
!	!	!	!	!LO:LB:g=original	!	!	!	!	!	!	!
=48	=48	=48	=48	=48	=48	=48	=48	=48	=48	=48	=48
8G\L	.	8g\L	.	16dd\LL	.	16dd\LL	.	1B-/_	.	1b-\_<	.
.	.	.	.	16dd\	.	16b-\	.	.	.	.	.
8G\	.	8g\	.	16dd\	.	16dd\	.	.	.	.	.
.	.	.	.	16dd\	.	16ff\JJ	.	.	.	.	.
8G\	.	8g\	.	16dd\	.	16bb-\LL	.	.	.	.	.
.	.	.	.	16dd\	.	16ff\	.	.	.	.	.
8G\J	.	8g\J	.	16dd\	.	16dd\	.	.	.	.	.
.	.	.	.	16dd\JJ	.	16b-\JJ	.	.	.	.	.
8D\L	.	8f\L	.	16dd\LL	.	4bb-\	.	.	.	.	.
.	.	.	.	16dd\	.	.	.	.	.	.	.
8D\	.	8f\	.	16dd\	.	.	.	.	.	.	.
.	.	.	.	16dd\	.	.	.	.	.	.	.
8D\	.	8f\	.	16dd\	.	4r	.	.	.	.	.
.	.	.	.	16dd\	.	.	.	.	.	.	.
8D\J	.	8f\J	.	16dd\	.	.	.	.	.	.	.
.	.	.	.	16dd\JJ	.	.	.	.	.	.	.
!	!	!	!	!	!	!	!	!	!	!LO:LB:g=original	!
=49	=49	=49	=49	=49	=49	=49	=49	=49	=49	=49	=49
!	!	!	!	!	!	!	!	!	!	!LO:TX:t=P:problem=brak zakończenia ligatury	!
8E-\L	.	8g\L	.	16cc\LL	.	8bb-\	.	2B-/]	.	2b-\]	.
.	.	.	.	16cc\	.	.	.	.	.	.	.
8E-\	.	8g\	.	16cc\	.	4bb-\	.	.	.	.	.
.	.	.	.	16cc\	.	.	.	.	.	.	.
8E-\	.	8g\	.	16cc\	.	.	.	.	.	.	.
.	.	.	.	16cc\	.	.	.	.	.	.	.
8E-\J	.	8g\J	.	16cc\	.	8bb-\	.	.	.	.	.
.	.	.	.	16cc\JJ	.	.	.	.	.	.	.
*	*	*	*	*	*	*	*	*2\right	*	*	*
8F\L	.	8f\L	.	16cc\LL	.	8aan\	.	2f\	.	2f\	.
.	.	.	.	16cc\	.	.	.	.	.	.	.
8F\	.	8f\	.	16cc\	.	4aa\	.	.	.	.	.
.	.	.	.	16cc\	.	.	.	.	.	.	.
8F\	.	8f\	.	16cc\	.	.	.	.	.	.	.
.	.	.	.	16cc\	.	.	.	.	.	.	.
8F\J	.	8f\J	.	16cc\	.	8aa\	.	.	.	.	.
.	.	.	.	16cc\JJ	.	.	.	.	.	.	.
*Xtremolo	*	*Xtremolo	*	*Xtremolo	*	*	*	*	*	*	*
=50	=50	=50	=50	=50	=50	=50	=50	=50	=50	=50	=50
8BB-/L	.	4f\	.	4dd/ 4f/	.	4bb-\ 4dd\	.	4B-/	.	4f\	.
16D/L	.	.	.	.	.	.	.	.	.	.	.
16F/JJ	.	.	.	.	.	.	.	.	.	.	.
16B-\LL	.	4r	.	4r	.	4r	.	4r	.	4r	.
16F\	.	.	.	.	.	.	.	.	.	.	.
16D\	.	.	.	.	.	.	.	.	.	.	.
16BB-\JJ	.	.	.	.	.	.	.	.	.	.	.
4F\	.	4f\	.	4r	.	4r	.	4r	.	4r	.
4FF/	.	4F/	.	4cc/ 4f/	.	4aan/ 4cc/ 4f/	.	4f\	.	4f\	.
!LO:LB:g=original	!	!LO:LB:g=original	!	!	!	!	!	!	!	!	!
=51	=51	=51	=51	=51	=51	=51	=51	=51	=51	=51	=51
8BB-/L	.	4B-/	.	4dd/ 4f/	.	4bb-/ 4dd/ 4f/	.	4B-/	.	4f\	.
16D/L	.	.	.	.	.	.	.	.	.	.	.
16F/JJ	.	.	.	.	.	.	.	.	.	.	.
16B-\LL	.	4r	.	4r	.	4r	.	4r	.	4r	.
16F\	.	.	.	.	.	.	.	.	.	.	.
16D\	.	.	.	.	.	.	.	.	.	.	.
16BB-\JJ	.	.	.	.	.	.	.	.	.	.	.
4F\	.	4f\	.	4r	.	4r	.	4r	.	4r	.
!	!	!	!	!	!	!LO:SIC:v:n=1:s=4aan	!	!	!	!	!
4FF/	.	4F/	.	4cc/ 4f/	.	4aa-/ 4cc/ 4f/	.	4f\	.	4f\	.
=52	=52	=52	=52	=52	=52	=52	=52	=52	=52	=52	=52
!LO:TX:t=P:problem=mixed beam	!	!LO:TX:t=P:problem=mixed beam	!	!	!	!	!	!	!	!	!
8BB-/L	.	8B-/L	.	4dd/ 4f/	.	4bb-/ 4dd/ 4f/	.	4B-/	.	4f\	.
8B-\	.	8b-\	.	.	.	.	.	.	.	.	.
8F\	.	8f\	.	4dd/ 4f/	.	4bb-/ 4dd/ 4f/	.	4B-/	.	4f\	.
8D\J	.	8d\J	.	.	.	.	.	.	.	.	.
4BB-/	.	4B-/	.	4dd/ 4f/	.	4bb-/ 4dd/ 4f/	.	4B-/	.	4f\	.
4r	.	4r	.	4r	.	4r	.	4r	.	4r	.
!	!	!	!	!	!	!LO:LB:g=original	!	!LO:LB:g=original	!	!	!
=53:|!|:	=53:|!|:	=53:|!|:	=53:|!|:	=53:|!|:	=53:|!|:	=53:|!|:	=53:|!|:	=53:|!|:	=53:|!|:	=53:|!|:	=53:|!|:
*>B	*	*>B	*	*>B	*	*>B	*	*>B	*	*>B	*
!	!LO:DY:t=pia&colon;	!	!LO:DY:rj	!	!LO:DY:rj	!	!	!LO:TX:a:t=8	!	!LO:TX:a:t=8	!
4BB-/	p	4d\	p	4f/	p	4r	.	00r	.	00r	.
4r	.	4r	.	4r	.	4ff\	pp	.	.	.	.
.	.	.	.	.	.	8qqee-/	.	.	.	.	.
2r	.	2r	.	2r	.	4dd\	.	.	.	.	.
.	.	.	.	.	.	8qqcc/	.	.	.	.	.
.	.	.	.	.	.	4b-\	.	.	.	.	.
=54	=54	=54	=54	=54	=54	=54	=54	=54	=54	=54	=54
[2C/	.	2.c\	.	2.e-/	.	2b-\	.	.	.	.	.
4C/]	.	.	.	.	.	8an/L	.	.	.	.	.
.	.	.	.	.	.	8b-/	.	.	.	.	.
4r	.	4r	.	4r	.	8g/	.	.	.	.	.
.	.	.	.	.	.	8a/J	.	.	.	.	.
=55	=55	=55	=55	=55	=55	=55	=55	=55	=55	=55	=55
(2AA-/	.	2c\	.	(1e-/	.	8f\L	.	.	.	.	.
!	!	!	!	!	!	!LO:SIC:v:s=8an\	!	!	!	!	!
.	.	.	.	.	.	8a-\	.	.	.	.	.
.	.	.	.	.	.	8cc\	.	.	.	.	.
.	.	.	.	.	.	8ee-X\J	.	.	.	.	.
.	.	.	.	.	.	8qqff/	.	.	.	.	.
2F\)	.	2F/	.	.	.	4ee-\	.	.	.	.	.
.	.	.	.	.	.	8dd\L	.	.	.	.	.
.	.	.	.	.	.	8cc\J	.	.	.	.	.
=56	=56	=56	=56	=56	=56	=56	=56	=56	=56	=56	=56
4r	.	4r	.	2f/)	.	(2cc#X\	.	.	.	.	.
(4B-\	.	4b-\|	.	.	.	.	.	.	.	.	.
4G\	.	(4g\	.	4f/	.	4dd\)	.	.	.	.	.
4F\)	.	4f\)	.	4r	.	4r	.	.	.	.	.
!	!	!	!	!LO:LB:g=original	!	!	!	!	!	!	!
=57	=57	=57	=57	=57	=57	=57	=57	=57	=57	=57	=57
2E-X\	.	8e-X\L|	.	(2g/	.	8r	.	00r	.	00r	.
.	.	(8c\	.	.	.	(8ccn\L	.	.	.	.	.
.	.	8Bn\	.	.	.	8bn\	.	.	.	.	.
.	.	8c\J)	.	.	.	8cc\J)	.	.	.	.	.
2D\	.	8r	.	2f/	.	8r	.	.	.	.	.
.	.	(8B-X/L	.	.	.	(8b-X\L	.	.	.	.	.
.	.	8An/	.	.	.	8an\	.	.	.	.	.
.	.	8B-/J)	.	.	.	8b-\J)	.	.	.	.	.
=58	=58	=58	=58	=58	=58	=58	=58	=58	=58	=58	=58
2AA-/	.	8r	.	1f/)	.	8r	.	.	.	.	.
.	.	8e-X\L|	.	.	.	(8ee-X\L	.	.	.	.	.
.	.	(8d\	.	.	.	8dd\	.	.	.	.	.
.	.	8e-\J)	.	.	.	8ee-\J)	.	.	.	.	.
!	!	!LO:LB:g=original	!	!	!	!	!	!	!	!	!
2BB-/	.	8r	.	.	.	8r	.	.	.	.	.
.	.	8d\L|	.	.	.	(8dd\L	.	.	.	.	.
.	.	(8c#X\	.	.	.	8cc#X\	.	.	.	.	.
.	.	8d\J)	.	.	.	8dd\J)	.	.	.	.	.
!LO:LB:g=original	!	!	!	!	!	!LO:LB:g=original	!	!	!	!	!
=59	=59	=59	=59	=59	=59	=59	=59	=59	=59	=59	=59
2E-X\	.	8r	.	2g/	.	8r	.	.	.	.	.
.	.	(8cn\L	.	.	.	8cc\L	.	.	.	.	.
.	.	8Bn\	.	.	.	8bn\	.	.	.	.	.
.	.	8c\J	.	.	.	8cc\J	.	.	.	.	.
2r	.	8g\L	.	2r	.	8gg\L	.	.	.	.	.
.	.	8e-\	.	.	.	8ee-X\	.	.	.	.	.
.	.	8d\	.	.	.	8dd\	.	.	.	.	.
.	.	8c\J)	.	.	.	8cc\J	.	.	.	.	.
=60	=60	=60	=60	=60	=60	=60	=60	=60	=60	=60	=60
(2.E-X\	.	(8Bn/L	.	(1g/	.	(8bn\L	.	.	.	.	.
.	.	8c/	.	.	.	8cc\	.	.	.	.	.
.	.	8B/	.	.	.	8b\	.	.	.	.	.
.	.	8c/J)	.	.	.	8cc\J)	.	.	.	.	.
.	.	8g\L	.	.	.	8gg\L	.	.	.	.	.
.	.	8e-X\	.	.	.	8ee-X\	.	.	.	.	.
4En\)	.	8c\	.	.	.	8cc\	.	.	.	.	.
.	.	8B-X\J	.	.	.	8b-X\J	.	.	.	.	.
=61	=61	=61	=61	=61	=61	=61	=61	=61	=61	=61	=61
!	!	!	!	!	!LO:DY:a	!	!	!	!	!	!
4F\	.	4An/	f	4f/)	p	4an/	.	(1f/	p	[1f/	p
4r	.	8A/L	.	8c/L	.	4r	.	.	.	.	.
.	.	8B-/J	.	8d/J	.	.	.	.	.	.	.
.	.	8qqd/	.	8qqf/	.	.	.	.	.	.	.
2r	.	4c\	.	4e-/	.	2r	.	.	.	.	.
.	.	8B-X/L	.	8d/L	.	.	.	.	.	.	.
.	.	8A/J	.	8c/J	.	.	.	.	.	.	.
=62	=62	=62	=62	=62	=62	=62	=62	=62	=62	=62	=62
2B-\	.	4B-/	.	4d/	.	4r	.	4B-/)	.	4f\]	.
.	.	4r	.	4r	.	4ff\	.	4r	.	4r	.
.	.	.	.	.	.	8qqee-/	.	.	.	.	.
2r	.	2r	.	2r	.	4dd\	.	2r	.	2r	.
.	.	.	.	.	.	8qqcc/	.	.	.	.	.
.	.	.	.	.	.	4b-\	.	.	.	.	.
=63	=63	=63	=63	=63	=63	=63	=63	=63	=63	=63	=63
2F\	.	4r	.	4r	.	2an/	.	(1f/	.	[1f/	.
!	!	!LO:SIC:v:s=8An/L	!	!	!	!	!	!	!	!	!
.	.	8A-/L	.	8c/L	.	.	.	.	.	.	.
.	.	8B-X/J	.	8d/J	.	.	.	.	.	.	.
.	.	8qqd/	.	8qqf/	.	.	.	.	.	.	.
2r	.	4c\	.	4e-/	.	2r	.	.	.	.	.
.	.	8B-/L	.	8d/L	.	.	.	.	.	.	.
!	!	!LO:SIC:v:s=8An/J	!	!	!	!	!	!	!	!	!
.	.	8A-/J	.	8c/J	.	.	.	.	.	.	.
=64	=64	=64	=64	=64	=64	=64	=64	=64	=64	=64	=64
2B-\	.	4B-/	.	4d/	.	8r	.	4B-/)	.	4f\]	.
.	.	.	.	.	.	(8ff\L	.	.	.	.	.
.	.	4r	.	4r	.	8een\	.	4r	.	4r	.
.	.	.	.	.	.	8ff\J)	.	.	.	.	.
2r	.	2r	.	2r	.	8ee-X\L	.	2r	.	2r	.
.	.	.	.	.	.	(8dd\	.	.	.	.	.
.	.	.	.	.	.	8cc\	.	.	.	.	.
.	.	.	.	.	.	8b-X\J)	.	.	.	.	.
!	!	!LO:LB:g=original	!	!	!	!	!	!	!	!	!
=65	=65	=65	=65	=65	=65	=65	=65	=65	=65	=65	=65
*tremolo	*	*tremolo	*	*tremolo	*	*	*	*	*	*	*
!	!LO:DY:rj:t=ffor	!	!	!	!LO:DY:t=ffor	!	!	!	!LO:DY:a	!	!
8D\L	ff	8f\L	f	16b-\LL	ff	2a-X/	f	1BB-/	f	[>1B-/	f
.	.	.	.	16b-\	.	.	.	.	.	.	.
8D\	.	8f\	.	16b-\	.	.	.	.	.	.	.
.	.	.	.	16b-\	.	.	.	.	.	.	.
8D\	.	8f\	.	16b-\	.	.	.	.	.	.	.
.	.	.	.	16b-\	.	.	.	.	.	.	.
8D\J	.	8f\J	.	16b-\	.	.	.	.	.	.	.
.	.	.	.	16b-\JJ	.	.	.	.	.	.	.
8D\L	.	8f\L	.	16b-\LL	.	2aa-X\	.	.	.	.	.
.	.	.	.	16b-\	.	.	.	.	.	.	.
8D\	.	8f\	.	16b-\	.	.	.	.	.	.	.
.	.	.	.	16b-\	.	.	.	.	.	.	.
8D\	.	8f\	.	16b-\	.	.	.	.	.	.	.
.	.	.	.	16b-\	.	.	.	.	.	.	.
8D\J	.	8f\J	.	16b-\	.	.	.	.	.	.	.
.	.	.	.	16b-\JJ	.	.	.	.	.	.	.
*Xtremolo	*	*	*	*	*	*	*	*	*	*	*
!	!	!	!	!	!	!LO:LB:g=original	!	!	!	!	!
=66	=66	=66	=66	=66	=66	=66	=66	=66	=66	=66	=66
4.E-X\	.	8g\L	.	16b-/ 16e-X/LL	.	8gg\L	.	(>1BB-/	.	(>1B-/]	.
.	.	.	.	16b-/ 16e-X/	.	.	.	.	.	.	.
.	.	8g\	.	16b-/ 16e-X/	.	8ee-X\	.	.	.	.	.
.	.	.	.	16b-/ 16e-X/	.	.	.	.	.	.	.
.	.	8g\	.	16b-/ 16e-X/	.	8b-\	.	.	.	.	.
.	.	.	.	16b-/ 16e-X/	.	.	.	.	.	.	.
16G\LL	.	8g\J	.	16b-/ 16e-X/	.	8g\J	.	.	.	.	.
16B-\JJ	.	.	.	16b-/ 16e-X/JJ	.	.	.	.	.	.	.
8e-\L	.	8g\L	.	16b-/ 16e-/LL	.	4e-/	.	.	.	.	.
.	.	.	.	16b-/ 16e-/	.	.	.	.	.	.	.
8B-\	.	8g\	.	16b-/ 16e-/	.	.	.	.	.	.	.
.	.	.	.	16b-/ 16e-/	.	.	.	.	.	.	.
8G\	.	8g\	.	16b-/ 16e-/	.	4r	.	.	.	.	.
.	.	.	.	16b-/ 16e-/	.	.	.	.	.	.	.
8E-\J	.	8g\J	.	16b-/ 16e-/	.	.	.	.	.	.	.
.	.	.	.	16b-/ 16e-/JJ	.	.	.	.	.	.	.
!	!	!	!	!LO:LB:g=original	!	!	!	!	!	!LO:LB:g=original	!
=67	=67	=67	=67	=67	=67	=67	=67	=67	=67	=67	=67
*tremolo	*	*	*	*	*	*	*	*	*	*	*
!	!	!	!	!	!	!	!	!	!	!LO:TX:t=P:problem=brak zakończenia łuku	!
8AA-X/L	.	8a-X\L	.	16ee-X\LL	.	2cc\	.	[>1E-/)	.	[1e-/)	.
.	.	.	.	16ee-X\	.	.	.	.	.	.	.
8AA-X/	.	8a-X\	.	16ee-X\	.	.	.	.	.	.	.
.	.	.	.	16ee-X\	.	.	.	.	.	.	.
8AA-X/	.	8a-X\	.	16ee-X\	.	.	.	.	.	.	.
.	.	.	.	16ee-X\	.	.	.	.	.	.	.
8AA-X/J	.	8a-X\J	.	16ee-X\	.	.	.	.	.	.	.
.	.	.	.	16ee-X\JJ	.	.	.	.	.	.	.
8A-\L	.	8A-/L	.	16ee-\LL	.	2ccc\	.	.	.	.	.
.	.	.	.	16ee-\	.	.	.	.	.	.	.
8A-\	.	8A-/	.	16ee-\	.	.	.	.	.	.	.
.	.	.	.	16ee-\	.	.	.	.	.	.	.
8A-\	.	8A-/	.	16ee-\	.	.	.	.	.	.	.
.	.	.	.	16ee-\	.	.	.	.	.	.	.
8A-\J	.	8A-/J	.	16ee-\	.	.	.	.	.	.	.
.	.	.	.	16ee-\JJ	.	.	.	.	.	.	.
*Xtremolo	*	*	*	*	*	*	*	*	*	*	*
!LO:LB:g=original	!	!	!	!	!	!	!	!	!	!	!
=68	=68	=68	=68	=68	=68	=68	=68	=68	=68	=68	=68
4.E-X\	.	8G/L	.	16ee-\LL	.	8bb-\L	.	1E-/_>	.	1e-/_	.
.	.	.	.	16ee-\	.	.	.	.	.	.	.
.	.	8G/	.	16ee-\	.	8gg\	.	.	.	.	.
.	.	.	.	16ee-\	.	.	.	.	.	.	.
.	.	8G/	.	16ee-\	.	8dd\	.	.	.	.	.
.	.	.	.	16ee-\	.	.	.	.	.	.	.
8E-\	.	8G/J	.	16ee-\	.	8ee-X\J	.	.	.	.	.
.	.	.	.	16ee-\JJ	.	.	.	.	.	.	.
8G\L	.	8g\L	.	16ee-\LL	.	4ee-\	.	.	.	.	.
.	.	.	.	16ee-\	.	.	.	.	.	.	.
8B-\	.	8g\	.	16ee-\	.	.	.	.	.	.	.
.	.	.	.	16ee-\	.	.	.	.	.	.	.
8G\	.	8g\	.	16ee-\	.	4r	.	.	.	.	.
.	.	.	.	16ee-\	.	.	.	.	.	.	.
8E-\J	.	8g\J	.	16ee-\	.	.	.	.	.	.	.
.	.	.	.	16ee-\JJ	.	.	.	.	.	.	.
=69	=69	=69	=69	=69	=69	=69	=69	=69	=69	=69	=69
*tremolo	*	*	*	*	*	*	*	*	*	*	*
8C/L	.	8f\L	.	16ee-\LL	.	16aan\LL	f	1E-/]	.	(1e-/]	.
.	.	.	.	16ee-\	.	16aa\	.	.	.	.	.
8C/	.	8f\	.	16ee-\	.	16aa\	.	.	.	.	.
.	.	.	.	16ee-\	.	16aa\JJ	.	.	.	.	.
*	*	*	*	*	*	*tremolo	*	*	*	*	*
8C/	.	8f\	.	16ee-\	.	16aa\LL	.	.	.	.	.
.	.	.	.	16ee-\	.	16aa\	.	.	.	.	.
8C/J	.	8f\J	.	16ee-\	.	16aa\	.	.	.	.	.
.	.	.	.	16ee-\JJ	.	16aa\JJ	.	.	.	.	.
8C/L	.	8f\L	.	16ee-\LL	.	16aa\LL	.	.	.	.	.
.	.	.	.	16ee-\	.	16aa\	.	.	.	.	.
8C/	.	8f\	.	16ee-\	.	16aa\	.	.	.	.	.
.	.	.	.	16ee-\	.	16aa\	.	.	.	.	.
8C/	.	8f\	.	16ee-\	.	16aa\	.	.	.	.	.
.	.	.	.	16ee-\	.	16aa\	.	.	.	.	.
8C/J	.	8f\J	.	16ee-\	.	16aa\	.	.	.	.	.
.	.	.	.	16ee-\JJ	.	16aa\JJ	.	.	.	.	.
=70	=70	=70	=70	=70	=70	=70	=70	=70	=70	=70	=70
8BB-X/L	.	8d\L	.	16ff\LL	.	16aa-X\LL	.	1B-/	.	(<1f/)	.
.	.	.	.	16ff\	.	16aa-X\	.	.	.	.	.
8BB-X/	.	8d\	.	16ff\	.	16aa-X\	.	.	.	.	.
.	.	.	.	16ff\	.	16aa-X\	.	.	.	.	.
8BB-X/	.	8d\	.	16ff\	.	16aa-X\	.	.	.	.	.
.	.	.	.	16ff\	.	16aa-X\	.	.	.	.	.
8BB-X/J	.	8d\J	.	16ff\	.	16aa-X\	.	.	.	.	.
.	.	.	.	16ff\JJ	.	16aa-X\JJ	.	.	.	.	.
*Xtremolo	*	*Xtremolo	*	*	*	*	*	*	*	*	*
8D\L	.	8d\L	.	16ff\LL	.	16aa-\LL	.	.	.	.	.
.	.	.	.	16ff\	.	16aa-\	.	.	.	.	.
8F\	.	8f\	.	16ff\	.	16aa-\	.	.	.	.	.
.	.	.	.	16ff\	.	16aa-\	.	.	.	.	.
8D\	.	8d\	.	16ff\	.	16aa-\	.	.	.	.	.
.	.	.	.	16ff\	.	16aa-\	.	.	.	.	.
8BB-\J	.	8B-\J	.	16ff\	.	16aa-\	.	.	.	.	.
.	.	.	.	16ff\JJ	.	16aa-\JJ	.	.	.	.	.
=71	=71	=71	=71	=71	=71	=71	=71	=71	=71	=71	=71
!	!	!	!	!	!	!LO:TX:t=P:problem=brak taktu	!	!	!	!	!
4.E-\	.	4.e-\	.	16ee-\LL	.	1ryy	.	2.E-/	.	2.e-\)	.
.	.	.	.	16ee-\	.	.	.	.	.	.	.
.	.	.	.	16ee-\	.	.	.	.	.	.	.
.	.	.	.	16ee-\	.	.	.	.	.	.	.
.	.	.	.	16ee-\	.	.	.	.	.	.	.
.	.	.	.	16ee-\	.	.	.	.	.	.	.
8G-X\	.	8g-X\	.	16ee-\	.	.	.	.	.	.	.
.	.	.	.	16ee-\JJ	.	.	.	.	.	.	.
4E-\	.	4e-\|	.	16ee-\LL	.	.	.	.	.	.	.
.	.	.	.	16ee-\	.	.	.	.	.	.	.
.	.	.	.	16ee-\	.	.	.	.	.	.	.
.	.	.	.	16ee-\	.	.	.	.	.	.	.
4D-X\	.	4d-X\|	.	16ee-\	.	.	.	4r	.	4r	.
.	.	.	.	16ee-\	.	.	.	.	.	.	.
.	.	.	.	16ee-\	.	.	.	.	.	.	.
.	.	.	.	16ee-\JJ	.	.	.	.	.	.	.
!	!	!	!	!	!	!	!	!LO:LB:g=original	!	!	!
=72	=72	=72	=72	=72	=72	=72	=72	=72	=72	=72	=72
4.C-X/	.	4.c-X\	.	16ee-\LL	.	16gg-X\LL	.	2.E-/	.	2.e-\	.
.	.	.	.	16ee-\	.	16gg-X\	.	.	.	.	.
.	.	.	.	16ee-\	.	16gg-X\	.	.	.	.	.
.	.	.	.	16ee-\	.	16gg-X\	.	.	.	.	.
.	.	.	.	16ee-\	.	16gg-X\	.	.	.	.	.
.	.	.	.	16ee-\	.	16gg-X\	.	.	.	.	.
8E-/	.	8e-\|	.	16ee-\	.	16gg-X\	.	.	.	.	.
.	.	.	.	16ee-\JJ	.	16gg-X\JJ	.	.	.	.	.
4C-/	.	4c-\|	.	16ee-\LL	.	16gg-\LL	.	.	.	.	.
.	.	.	.	16ee-\	.	16gg-\	.	.	.	.	.
.	.	.	.	16ee-\	.	16gg-\	.	.	.	.	.
.	.	.	.	16ee-\	.	16gg-\	.	.	.	.	.
4BB-X/	.	4B-\|	.	16ee-\	.	16gg-\	.	4r	.	4r	.
.	.	.	.	16ee-\	.	16gg-\	.	.	.	.	.
.	.	.	.	16ee-\	.	16gg-\	.	.	.	.	.
.	.	.	.	16ee-\JJ	.	16gg-\JJ	.	.	.	.	.
=73	=73	=73	=73	=73	=73	=73	=73	=73	=73	=73	=73
4AAn/	.	4An/	.	16ee-X\LL	.	16ff\LL	.	4e-\	.	4f\	.
.	.	.	.	16ee-X\	.	16ff\	.	.	.	.	.
.	.	.	.	16ee-X\	.	16ff\	.	.	.	.	.
.	.	.	.	16ee-X\	.	16ff\	.	.	.	.	.
4AA/	.	4c/	.	16ee-X\	.	16ff\	.	4e-\	.	4f\	.
.	.	.	.	16ee-X\	.	16ff\	.	.	.	.	.
.	.	.	.	16ee-X\	.	16ff\	.	.	.	.	.
.	.	.	.	16ee-X\JJ	.	16ff\JJ	.	.	.	.	.
4AA/	.	4c/	.	16ee-\LL	.	16ff\LL	.	4e-\	.	4f\	.
.	.	.	.	16ee-\	.	16ff\	.	.	.	.	.
.	.	.	.	16ee-\	.	16ff\	.	.	.	.	.
.	.	.	.	16ee-\	.	16ff\	.	.	.	.	.
4AA/	.	4c/	.	16ee-\	.	16ff\	.	4e-\	.	4f\	.
.	.	.	.	16ee-\	.	16ff\	.	.	.	.	.
.	.	.	.	16ee-\	.	16ff\	.	.	.	.	.
.	.	.	.	16ee-\JJ	.	16ff\JJ	.	.	.	.	.
*	*	*	*	*Xtremolo	*	*Xtremolo	*	*	*	*	*
!	!	!LO:LB:g=original	!	!	!	!	!	!	!	!	!
=74	=74	=74	=74	=74	=74	=74	=74	=74	=74	=74	=74
4BB-/	.	4B-/	.	4dd\	.	16ff\LL	.	4B-/	.	4f\	.
.	.	.	.	.	.	16b-X\	.	.	.	.	.
.	.	.	.	.	.	16cc\	.	.	.	.	.
.	.	.	.	.	.	16dd\JJ	.	.	.	.	.
4r	.	4r	.	4r	.	16ee-\LL	.	4r	.	4r	.
.	.	.	.	.	.	16ff\	.	.	.	.	.
.	.	.	.	.	.	16gg\	.	.	.	.	.
.	.	.	.	.	.	16aan\JJ	.	.	.	.	.
4BB-/	.	4B-/	.	16r	.	4bb-\	.	4B-/	.	4f\	.
.	.	.	.	16b-\LL	.	.	.	.	.	.	.
.	.	.	.	16cc\	.	.	.	.	.	.	.
.	.	.	.	16dd\JJ	.	.	.	.	.	.	.
4r	.	4r	.	16ee-\LL	.	4r	.	4r	.	4r	.
.	.	.	.	16ff\	.	.	.	.	.	.	.
.	.	.	.	16gg\	.	.	.	.	.	.	.
.	.	.	.	16aan\JJ	.	.	.	.	.	.	.
!LO:LB:g=original	!	!	!	!	!	!LO:LB:g=original	!	!	!	!	!
=75	=75	=75	=75	=75	=75	=75	=75	=75	=75	=75	=75
16r	.	16r	.	4bb-\	.	4r	f	4B-/	.	4f\	.
16BB-/LL	.	16B-/LL	.	.	.	.	.	.	.	.	.
16Cn/	.	16c/	.	.	.	.	.	.	.	.	.
16Dn/JJ	.	16d/JJ	.	.	.	.	.	.	.	.	.
16E-\LL	.	16e-\LL	.	4dd/ 4f/	.	4bb-\ 4dd\ 4f\	.	4B-/	.	4f\	.
16F\	.	16f\	.	.	.	.	.	.	.	.	.
16G\	.	16g\	.	.	.	.	.	.	.	.	.
16An\JJ	.	16an\JJ	.	.	.	.	.	.	.	.	.
8B-\L	.	8b-\L	.	4dd/ 4f/	.	4bb-\ 4dd\ 4f\	.	4B-/	.	4f\	.
8A-X\	.	8a-X\	.	.	.	.	.	.	.	.	.
8G\	.	8g\	.	4r	.	4r	.	4r	.	4r	.
8F\J	.	8f\J	.	.	.	.	.	.	.	.	.
!	!	!	!	!LO:LB:g=original	!	!	!	!	!	!	!
=76	=76	=76	=76	=76	=76	=76	=76	=76	=76	=76	=76
2E-\	.	2e-\	.	2e-/	.	2e-/	.	2E-/	.	2e-\	f
2BB-/	.	2B-/	.	2B-/	.	2B-/	.	2BB-/	.	2B-/	.
!	!	!	!	!	!	!	!	!	!	!LO:LB:g=original	!
=77	=77	=77	=77	=77	=77	=77	=77	=77	=77	=77	=77
8E-\L	.	8e-\L	.	8e-/L	.	8e-/L	.	4E-/	.	4e-\	.
8G\	.	8g\	.	8g/	.	8g/	.	.	.	.	.
8B-\	.	8b-\	.	8b-/	.	8b-/	.	4E-/	.	4e-\	.
8G\J	.	8g\J	.	8g/J	.	8g/J	.	.	.	.	.
4E-\	.	4e-\	.	4e-/	.	4e-/	.	4E-/	.	4e-\	.
4r	.	4r	.	4r	.	4r	.	4r	.	4r	.
=78	=78	=78	=78	=78	=78	=78	=78	=78	=78	=78	=78
!LO:TX:a:t=2	!	!LO:TX:a:t=2	!	!LO:TX:a:t=2	!	!LO:TX:a:t=2	!	!LO:TX:b:i:t=Solo	!	!LO:TX:a:i:t=Solo	!
0r	.	0r	.	0r	.	0r	.	4B-/	.	4f\	.
.	.	.	.	.	.	.	.	8B-/L	.	8f\L	.
.	.	.	.	.	.	.	.	8B-/J	.	8f\J	.
.	.	.	.	.	.	.	.	4B-/	.	4f\	.
.	.	.	.	.	.	.	.	4B-/	.	4f\	.
!	!	!	!	!	!	!	!	!LO:LB:g=original	!	!	!
=79	=79	=79	=79	=79	=79	=79	=79	=79	=79	=79	=79
.	.	.	.	.	.	.	.	4e-\	.	4g\	.
.	.	.	.	.	.	.	.	4g\	.	4b-\	.
.	.	.	.	.	.	.	.	2r	.	4r	.
.	.	.	.	.	.	.	.	.	.	4r	.
=80	=80	=80	=80	=80	=80	=80	=80	=80	=80	=80	=80
!	!	!	!	!	!LO:DY:rj	!	!	!LO:TX:a:t=2	!	!LO:TX:a:t=2	!
2E-\	.	2e-\	.	2e-/	f	2e-/	.	0r	.	0r	.
2BB-/	.	2B-/	.	2B-/	.	2B-/	.	.	.	.	.
=81	=81	=81	=81	=81	=81	=81	=81	=81	=81	=81	=81
8E-\L	.	8e-\L	.	8e-/L	.	8e-/L	.	.	.	.	.
8G\	.	8g\	.	8g/	.	8g/	.	.	.	.	.
8B-\	.	8b-\	.	8b-/	.	8b-/	.	.	.	.	.
8G\J	.	8g\J	.	8g/J	.	8g/J	.	.	.	.	.
4E-\	.	4e-\	.	4e-/	.	4e-/	.	.	.	.	.
4r	.	4r	.	4r	.	4r	.	.	.	.	.
=82	=82	=82	=82	=82	=82	=82	=82	=82	=82	=82	=82
!LO:TX:a:t=1	!	!LO:TX:a:t=2	!	!LO:TX:a:t=2	!	!LO:TX:a:t=2	!	!	!	!	!
1r	.	0r	.	0r	.	0r	.	4B-/	.	4f\	.
.	.	.	.	.	.	.	.	8B-/L	.	8f\L	.
.	.	.	.	.	.	.	.	8B-/J	.	8f\J	.
.	.	.	.	.	.	.	.	4B-/	.	4f\	.
.	.	.	.	.	.	.	.	4B-/	.	4f\	.
=83	=83	=83	=83	=83	=83	=83	=83	=83	=83	=83	=83
4r	.	.	.	.	.	.	.	4e-\	.	4g\	.
8r	.	.	.	.	.	.	.	4G/	.	4e-\	.
8E-\	.	.	.	.	.	.	.	.	.	.	.
!LO:TX:t=P:problem=nieczytelny fragment	!	!	!	!	!	!	!	!	!	!	!
8BB-/L	.	.	.	.	.	.	.	2r	.	2r	.
8E-/J	.	.	.	.	.	.	.	.	.	.	.
!LO:LB:g=original	!	!	!	!	!	!	!	!	!	!	!
8GG/L	.	.	.	.	.	.	.	.	.	.	.
8BB-/J	.	.	.	.	.	.	.	.	.	.	.
!	!	!LO:LB:g=original	!	!	!	!	!	!	!	!	!
=84	=84	=84	=84	=84	=84	=84	=84	=84	=84	=84	=84
!	!	!	!	!	!	!	!	!LO:TX:a:t=1	!	!LO:TX:a:t=1	!
2EE-X/	.	8r	.	8r	.	8r	.	1r	.	1r	.
!	!	!	!	!	!LO:HP:a	!	!	!	!	!	!
.	.	4B-/	<	4G/	<	4e-/	<	.	.	.	.
.	.	4B-/	.	4G/	.	4e-/	.	.	.	.	.
2E-\	.	.	.	.	.	.	.	.	.	.	.
.	.	4B-/	.	4G/	.	4e-/	.	.	.	.	.
.	.	8B-/	.	8G/	.	8e-/	.	.	.	.	.
=85	=85	=85	=85	=85	=85	=85	=85	=85	=85	=85	=85
!	!	!	!	!	!	!	!	!	!	!	!LO:HP:t=cres
4r	.	[1B-/	.	[1G/	.	[1e-/	.	4r	.	4r	<
!	!	!	!	!	!	!	!	!	!LO:HP:a:t=cres	!	!
8r	.	.	.	.	.	.	.	4E-/	<	4e-\	.
8E-\	.	.	.	.	.	.	.	.	.	.	.
8BB-/L	.	.	.	.	.	.	.	4E-/	.	4e-\	.
8E-/	.	.	.	.	.	.	.	.	.	.	.
8GG/	.	.	.	.	.	.	.	4E-/	.	4e-\	.
8BB-/J	.	.	.	.	.	.	.	.	.	.	.
=86	=86	=86	=86	=86	=86	=86	=86	=86	=86	=86	=86
2EE-/	.	8B-/]	.	8G/]	.	8e-/]	.	4E-/	.	4e-\	.
.	.	4B-/	.	4G/	.	4d-X/	.	.	.	.	.
.	.	.	.	.	.	.	.	4r	.	4r	.
.	.	4B-/	.	4G/	.	4d-/	.	.	.	.	.
2E-\	.	.	.	.	.	.	.	2r	.	2r	.
.	.	4B-/	.	4G/	.	4d-/	.	.	.	.	.
.	.	8B-/	.	8G/	.	[8d-/	.	.	.	.	.
!	!	!	!	!	!	!LO:LB:g=original	!	!	!	!LO:LB:g=original	!
=87	=87	=87	=87	=87	=87	=87	=87	=87	=87	=87	=87
!	!	!	!	!	!	!LO:TX:t=P:problem=brak zakończenia ligatury	!	!	!	!	!
4r	.	1B-/	.	[1G/	.	(1d-X/]	.	4r	.	4r	.
8r	.	.	.	.	.	.	.	4E-/	.	4e-\	.
8E-\	.	.	.	.	.	.	.	.	.	.	.
8BB-/L	.	.	.	.	.	.	.	4E-/	.	4e-\	.
8E-/	.	.	.	.	.	.	.	.	.	.	.
8GG/	.	.	.	.	.	.	.	4E-/	.	4e-\	.
8BB-/J	.	.	.	.	.	.	.	.	.	.	.
!	!	!	!	!LO:LB:g=original	!	!	!	!LO:LB:g=original	!	!	!
=88	=88	=88	=88	=88	=88	=88	=88	=88	=88	=88	=88
!	!	!	!	!LO:TX:t=P:problem=brak zakończenia ligatury	!	!	!	!LO:TX:t=14	!	!LO:TX:a:t=14	!
2EEn/	.	8en\	.	8G/]	.	8c/)	.	1r	.	00r	.
.	.	4e\	.	4G/	.	4c/	.	.	.	.	.
.	.	4e\	.	4G/	.	4c/	.	.	.	.	.
2En\	.	.	.	.	.	.	.	.	.	.	.
.	.	4e\	.	4G/	.	4c/	.	.	.	.	.
.	.	8e\	.	8G/	.	8c/	.	.	.	.	.
=89	=89	=89	=89	=89	=89	=89	=89	=89	=89	=89	=89
!	!	!LO:TX:t=P:problem=zbędny łuk do pauzy	!	!	!	!	!	!	!	!	!
4r	.	1en\	.	[1G/	.	1c/	.	1r	.	.	.
8r	.	.	.	.	.	.	.	.	.	.	.
8En\	.	.	.	.	.	.	.	.	.	.	.
!LO:TX:t=P:problem=niewyrazne nuty	!	!	!	!	!	!	!	!	!	!	!
8C/L	.	.	.	.	.	.	.	.	.	.	.
8E/	.	.	.	.	.	.	.	.	.	.	.
8GG/	.	.	.	.	.	.	.	.	.	.	.
8C/J	.	.	.	.	.	.	.	.	.	.	.
=90	=90	=90	=90	=90	=90	=90	=90	=90	=90	=90	=90
2EEn/	.	8r	.	8G/]	.	8r	.	1r	.	.	.
.	.	4en\	.	4G/	.	4B-X/	.	.	.	.	.
.	.	4e\	.	4G/	.	4B-/	.	.	.	.	.
2En\	.	.	.	.	.	.	.	.	.	.	.
.	.	4e\	.	4G/	.	4B-/	.	.	.	.	.
.	.	8e\	.	8G/	.	8B-/	.	.	.	.	.
!LO:LB:g=original	!	!	!	!	!	!	!	!	!	!	!
=91	=91	=91	=91	=91	=91	=91	=91	=91	=91	=91	=91
!	!	!LO:TX:t=P:problem=zbędny łuk do pauzy	!	!	!	!	!	!	!	!	!
4r	.	1e-\	.	1G/	.	(1B-X/	.	1r	.	.	.
8r	.	.	.	.	.	.	.	.	.	.	.
8En\	.	.	.	.	.	.	.	.	.	.	.
8C/L	.	.	.	.	.	.	.	.	.	.	.
8E/	.	.	.	.	.	.	.	.	.	.	.
8GG/	.	.	.	.	.	.	.	.	.	.	.
8C/J	.	.	.	.	.	.	.	.	.	.	.
=92	=92	=92	=92	=92	=92	=92	=92	=92	=92	=92	=92
2FF/	.	8r	.	8r	.	8A-X/)	.	1r	.	00r	.
.	.	4f\	.	4c/	.	4A-/	.	.	.	.	.
.	.	4f\	.	4c/	.	4A-/	.	.	.	.	.
2F\	.	.	.	.	.	.	.	.	.	.	.
.	.	4f\	.	4c/	.	4A-/	.	.	.	.	.
.	.	8f\	.	8c/	.	8A-/	.	.	.	.	.
=93	=93	=93	=93	=93	=93	=93	=93	=93	=93	=93	=93
!	!	!	!	!LO:TX:t=P:problem=zbędny łuk do pauzy	!	!	!	!	!	!	!
4r	.	1f\	.	1c/	.	1A-X/	.	1r	.	.	.
8r	.	.	.	.	.	.	.	.	.	.	.
8F\	.	.	.	.	.	.	.	.	.	.	.
8C/L	.	.	.	.	.	.	.	.	.	.	.
8F/	.	.	.	.	.	.	.	.	.	.	.
8AA-X/	.	.	.	.	.	.	.	.	.	.	.
8C/J	.	.	.	.	.	.	.	.	.	.	.
!	!	!LO:LB:g=original	!	!	!	!	!	!	!	!	!
=94	=94	=94	=94	=94	=94	=94	=94	=94	=94	=94	=94
2FF/	.	8e-X\	.	8r	.	8An/	.	1r	.	.	.
.	.	4e-\	.	4c/	.	4A/	.	.	.	.	.
.	.	4e-\	.	4c/	.	4A/	.	.	.	.	.
2F\	.	.	.	.	.	.	.	.	.	.	.
.	.	4e-\	.	4c/	.	4A/	.	.	.	.	.
.	.	8e-\	.	8c/	.	8A/	.	.	.	.	.
=95	=95	=95	=95	=95	=95	=95	=95	=95	=95	=95	=95
!	!	!	!	!LO:TX:t=P:problem=zbędny łuk do pauzy	!	!	!	!	!	!	!
4r	.	1e-\	.	1c/	.	1An/	.	1r	.	.	.
8r	.	.	.	.	.	.	.	.	.	.	.
8FF/	.	.	.	.	.	.	.	.	.	.	.
8F\L	.	.	.	.	.	.	.	.	.	.	.
8E-\	.	.	.	.	.	.	.	.	.	.	.
8D\	.	.	.	.	.	.	.	.	.	.	.
8C\J	.	.	.	.	.	.	.	.	.	.	.
=96	=96	=96	=96	=96	=96	=96	=96	=96	=96	=96	=96
2BB-/	.	8d\	.	8r	.	8B-/	.	1r	.	00r	.
.	.	4f\	.	4B-/	.	4dn/	.	.	.	.	.
.	.	4f\	.	4B-/	.	4d/	.	.	.	.	.
2B-\	.	.	.	.	.	.	.	.	.	.	.
.	.	4f\	.	4B-/	.	4d/	.	.	.	.	.
.	.	8f\	.	8B-/	.	8d/	.	.	.	.	.
!	!	!	!	!	!	!LO:LB:g=original	!	!	!	!	!
=97	=97	=97	=97	=97	=97	=97	=97	=97	=97	=97	=97
4r	.	(<1f\	.	[1B-/	.	[1d/	.	1r	.	.	.
8r	.	.	.	.	.	.	.	.	.	.	.
8B-\	.	.	.	.	.	.	.	.	.	.	.
8F\L	.	.	.	.	.	.	.	.	.	.	.
8B-\	.	.	.	.	.	.	.	.	.	.	.
8D\	.	.	.	.	.	.	.	.	.	.	.
8F\J	.	.	.	.	.	.	.	.	.	.	.
!LO:LB:g=original	!	!	!	!LO:LB:g=original	!	!	!	!	!	!	!
=98	=98	=98	=98	=98	=98	=98	=98	=98	=98	=98	=98
!	!	!	!	!LO:TX:t=P:problem=brak zakończenia ligatury	!	!	!	!	!	!	!
2BB-/	.	8d\)	.	8B-/]	.	8d/]	.	1r	.	.	.
.	.	4d\	.	4f/	.	4a-X/	.	.	.	.	.
.	.	4d\	.	4f/	.	4a-/	.	.	.	.	.
2B-\	.	.	.	.	.	.	.	.	.	.	.
.	.	4d\	.	4f/	.	4a-/	.	.	.	.	.
.	.	8d\	.	8f/	.	8a-/	.	.	.	.	.
=99	=99	=99	=99	=99	=99	=99	=99	=99	=99	=99	=99
!	!	!	!	!LO:TX:t=P:problem=zbędny łuk do pauzy	!	!	!	!	!	!	!
4r	.	1d\	.	1f/	.	1a-/	.	1r	.	.	.
8r	.	.	.	.	.	.	.	.	.	.	.
8B-\	.	.	.	.	.	.	.	.	.	.	.
8F\L	.	.	.	.	.	.	.	.	.	.	.
8B-\	.	.	.	.	.	.	.	.	.	.	.
8D\	.	.	.	.	.	.	.	.	.	.	.
8F\J	.	.	.	.	.	.	.	.	.	.	.
=100	=100	=100	=100	=100	=100	=100	=100	=100	=100	=100	=100
2BB-/	.	8r	.	8r	.	8r	.	1r	.	0r	.
.	.	4B-X/	.	4e-/	.	4g/	.	.	.	.	.
.	.	4B-/	.	4e-/	.	4g/	.	.	.	.	.
2B-\	.	.	.	.	.	.	.	.	.	.	.
.	.	4B-/	.	4e-/	.	4g/	.	.	.	.	.
.	.	8B-/	.	8e-/	.	8g/	.	.	.	.	.
=101	=101	=101	=101	=101	=101	=101	=101	=101	=101	=101	=101
4r	.	1B-/	.	1e-/	.	1g/	.	1r	.	.	.
8r	.	.	.	.	.	.	.	.	.	.	.
8B-\	.	.	.	.	.	.	.	.	.	.	.
8G\L	.	.	.	.	.	.	.	.	.	.	.
8B-\	.	.	.	.	.	.	.	.	.	.	.
8E-X\	.	.	.	.	.	.	.	.	.	.	.
8G\J	.	.	.	.	.	.	.	.	.	.	.
=102	=102	=102	=102	=102	=102	=102	=102	=102	=102	=102	=102
!	!	!	!	!	!	!	!	!	!LO:HP:t=cres	!	!LO:HP:t=cres
2BB-/	.	8r	.	8r	.	8r	.	1B-\	<	[<1b-\	<
.	.	4B-/	.	4f/	.	4a-X/	.	.	.	.	.
.	.	4B-/	.	4f/	.	4a-/	.	.	.	.	.
2B-\	.	.	.	.	.	.	.	.	.	.	.
.	.	4B-/	.	4f/	.	4a-/	.	.	.	.	.
.	.	8B-/	.	8f/	.	8a-/	.	.	.	.	.
=103	=103	=103	=103	=103	=103	=103	=103	=103	=103	=103	=103
!	!	!LO:TX:t=P:problem=zbędny łuk do pauzy	!	!	!	!	!	!	!	!	!
4r	.	1B-/	.	(1f/	.	1a-/	.	1B-\	.	1b-\_<	.
8r	.	.	.	.	.	.	.	.	.	.	.
8B-\	.	.	.	.	.	.	.	.	.	.	.
8F\L	.	.	.	.	.	.	.	.	.	.	.
8B-\	.	.	.	.	.	.	.	.	.	.	.
8D\	.	.	.	.	.	.	.	.	.	.	.
8F\J	.	.	.	.	.	.	.	.	.	.	.
!	!	!LO:LB:g=original	!	!	!	!	!	!	!	!	!
=104	=104	=104	=104	=104	=104	=104	=104	=104	=104	=104	=104
2BB-/	.	8r	.	8e-X/)	.	8g/	.	1B-\	.	1b-\_<	f
.	.	4B-/	.	4e-/	.	4g/	.	.	.	.	.
.	.	8B-/	.	4e-/	.	8g/	.	.	.	.	.
2B-\	.	8c/	.	.	.	8an/	.	.	.	.	.
.	.	4c/	.	4e-/	.	4a/	.	.	.	.	.
.	.	8c/	.	8e-/	.	8a/	.	.	.	.	.
=105	=105	=105	=105	=105	=105	=105	=105	=105	=105	=105	=105
!	!	!	!	!	!	!	!	!	!	!	!LO:DY:t=ffor
2BB-/	.	8B-/	.	8d/	.	8b-/	f	1B-\	f	1b-\_<	ff
.	.	4B-/	.	4d/	.	4b-/	.	.	.	.	.
.	.	8B-/	.	8d/	.	8b-/	.	.	.	.	.
2B-\	.	8B-/	.	8d/	.	8a-X/	.	.	.	.	.
.	.	4B-/	.	4d/	.	4a-/	.	.	.	.	.
.	.	8B-/	.	8d/	.	8a-/	.	.	.	.	.
=106	=106	=106	=106	=106	=106	=106	=106	=106	=106	=106	=106
*	*	*tremolo	*	*tremolo	*	*tremolo	*	*	*	*	*
!	!	!	!	!	!	!	!LO:DY:t=fortis	!	!LO:DY:t=ffor	!	!
2BB-/	.	16B-/LL	f	16e-X/L	.	16g/LL	ff	1B-\	ff	1b-\]	.
.	.	16B-/	.	16e-/	.	16g/	.	.	.	.	.
.	.	16B-/	.	16e-/	.	16g/	.	.	.	.	.
.	.	16B-/	.	16e-/	.	16g/	.	.	.	.	.
.	.	16B-/	.	16e-/	.	16g/	.	.	.	.	.
.	.	16B-/	.	16e-/	.	16g/	.	.	.	.	.
.	.	16B-/	.	16e-/	.	16g/	.	.	.	.	.
.	.	16B-/JJ	.	16e-/J	.	16g/JJ	.	.	.	.	.
2B-\	.	16c/LL	.	16e-/L	rf	16an/LL	.	.	.	.	.
.	.	16c/	.	16e-/	.	16an/	.	.	.	.	.
.	.	16c/	.	16e-/	.	16an/	.	.	.	.	.
.	.	16c/	.	16e-/	.	16an/	.	.	.	.	.
.	.	16c/	.	16e-/	.	16an/	.	.	.	.	.
.	.	16c/	.	16e-/	.	16an/	.	.	.	.	.
.	.	16c/	.	16e-/	.	16an/	.	.	.	.	.
.	.	16c/JJ	.	16e-/J	.	16an/JJ	.	.	.	.	.
*	*	*Xtremolo	*	*Xtremolo	*	*Xtremolo	*	*	*	*	*
!LO:LB:g=original	!	!	!	!LO:LB:g=original	!	!LO:LB:g=original	!	!	!	!	!
=107	=107	=107	=107	=107	=107	=107	=107	=107	=107	=107	=107
!	!	!	!	!LO:TX:t=P:problem=mixed beam	!	!	!	!	!	!	!
4BB-/	.	4B-/	.	16d/LL	f	8b-\L	.	4B-/	.	4b-\	.
.	.	.	.	16b-\	.	.	.	.	.	.	.
.	.	.	.	16cc\	.	16cc\L	.	.	.	.	.
.	.	.	.	16dd\JJ	.	16dd\JJ	.	.	.	.	.
4B-\	.	4B-/	.	16ee-\LL	.	16ee-\LL	.	4B-/	.	4b-\	.
.	.	.	.	16ff\	.	16ff\	.	.	.	.	.
.	.	.	.	16gg\	.	16gg\	.	.	.	.	.
.	.	.	.	16aan\JJ	.	16aan\JJ	.	.	.	.	.
4BB-/	.	4B-/	.	4bb-\	.	4bb-\	.	4B-/	.	4b-\	.
4r	.	4r	.	4r	.	4r	.	4r	.	4r	.
=108	=108	=108	=108	=108	=108	=108	=108	=108	=108	=108	=108
!	!	!LO:TX:a:i:t=Dol	!	!	!LO:DY:t=pia	!LO:TX:a:t=Dolce	!	!LO:TX:t=13	!	!LO:TX:a:t=13	!
8r	.	2B-/	p	8r	p	2b-\	p	1r	.	00r	.
!LO:TX:a:t=Violoncello	!	!	!	!	!	!	!	!	!	!	!
(8E-'\L	pp	.	.	(8B-'/L	.	.	.	.	.	.	.
8E-'\	.	.	.	8B-'/	.	.	.	.	.	.	.
8E-'\J)	.	.	.	8B-'/J)	.	.	.	.	.	.	.
4E-\	.	(8A-X/L	.	4B-/	.	(8a-X/L	.	.	.	.	.
.	.	8G/	.	.	.	8g/	.	.	.	.	.
4r	.	8F/)	.	4r	.	8f/	.	.	.	.	.
.	.	8E-X/J	.	.	.	8e-/J)	.	.	.	.	.
=109	=109	=109	=109	=109	=109	=109	=109	=109	=109	=109	=109
.	.	8qqF/	.	.	.	8qqf/	.	.	.	.	.
8r	.	8E-/L	.	8r	.	8e-/L	.	1r	.	.	.
(8F'\L	.	8D/J	.	(8B-'/L	.	8d/J	.	.	.	.	.
8F'\	.	4D/	.	8B-'/	.	4d/	.	.	.	.	.
8F'\J)	.	.	.	8B-'/J)	.	.	.	.	.	.	.
4F\	.	2r	.	4B-/	.	8r	.	.	.	.	.
.	.	.	.	.	.	8B-/L	.	.	.	.	.
4r	.	.	.	4r	.	8d/	.	.	.	.	.
.	.	.	.	.	.	8f/J	.	.	.	.	.
=110	=110	=110	=110	=110	=110	=110	=110	=110	=110	=110	=110
.	.	.	.	.	.	8qqb-/	.	.	.	.	.
8r	.	2A-X/	.	8r	.	2a-X/	.	1r	.	.	.
(8D'\L	.	.	.	(8B-'/L	.	.	.	.	.	.	.
8D'\	.	.	.	8B-'/	.	.	.	.	.	.	.
8D'\J)	.	.	.	8B-'/J)	.	.	.	.	.	.	.
4D\	.	8G/L	.	4B-/	.	8g/L	.	.	.	.	.
.	.	8F/	.	.	.	8f/	.	.	.	.	.
4r	.	8E-/	.	4r	.	8e-/	.	.	.	.	.
.	.	8D/J	.	.	.	8d/J	.	.	.	.	.
!	!	!LO:LB:g=original	!	!	!	!	!	!	!	!	!
=111	=111	=111	=111	=111	=111	=111	=111	=111	=111	=111	=111
.	.	.	.	.	.	(8qqd/	.	.	.	.	.
8r	.	(8D/L	.	8r	.	4e-X/)	.	1r	.	.	.
(8E-'\L	.	8E-/J)	.	(8B-'/L	.	.	.	.	.	.	.
8E-'\	.	4E-/|	.	8B-'/	.	4e-/	.	.	.	.	.
8E-'\J)	.	.	.	8B-'/J)	.	.	.	.	.	.	.
4E-\	.	2r	.	4B-/	.	8r	.	.	.	.	.
.	.	.	.	.	.	8B-/L	.	.	.	.	.
4r	.	.	.	4r	.	8e-/	.	.	.	.	.
.	.	.	.	.	.	8g/J	.	.	.	.	.
=112	=112	=112	=112	=112	=112	=112	=112	=112	=112	=112	=112
8r	.	2B-/	.	8r	.	2b-/	.	1r	.	00r	.
(8E-'\L	.	.	.	(8B-'/L	.	.	.	.	.	.	.
8E-'\	.	.	.	8B-'/	.	.	.	.	.	.	.
8E-'\J)	.	.	.	8B-'/J)	.	.	.	.	.	.	.
!	!	!LO:TX:t=P:problem=zapis łuku niejednoznaczny	!	!	!	!	!	!	!	!	!
4G\	.	(8A-/L	.	4B-/	.	(8a-/L	.	.	.	.	.
.	.	8G/	.	.	.	8g/	.	.	.	.	.
4r	.	8F/)	.	4r	.	8f/)	.	.	.	.	.
.	.	8E-/J	.	.	.	8e-/J	.	.	.	.	.
!	!	!	!	!LO:LB:g=original	!	!LO:PB:g=original	!	!	!	!	!
=113	=113	=113	=113	=113	=113	=113	=113	=113	=113	=113	=113
8r	.	(8En/L	.	8r	.	(8en/L	.	1r	.	.	.
(8A-X'\L	.	8F/J)	.	(8c'/L	.	8f/J)	.	.	.	.	.
8A-'\	.	4F/	.	8c'/	.	4f/	.	.	.	.	.
8A-'\J)	.	.	.	8c'/J)	.	.	.	.	.	.	.
4A-\	.	8r	.	4c/	.	8r	.	.	.	.	.
.	.	8A-X/L	.	.	.	(8a-/L	.	.	.	.	.
!LO:TX:t=P:problem=nieczytelna 4r	!	!	!	!	!	!	!	!	!	!	!
4r	.	(8En/	.	4r	.	8en/	.	.	.	.	.
.	.	8F/J)	.	.	.	8f/J)	.	.	.	.	.
!LO:PB:g=original	!	!	!	!	!	!	!	!	!	!	!
=114	=114	=114	=114	=114	=114	=114	=114	=114	=114	=114	=114
.	.	.	.	.	.	(8qqe-X/	.	.	.	.	.
8r	.	8E-X/L	.	8r	.	4d/)	.	1r	.	.	.
8B-\L	.	8D/J	.	(8dn'/L	.	.	.	.	.	.	.
8B-\	.	4.f\	.	8d'/	.	4.ff\	.	.	.	.	.
8B-\J	.	.	.	8d'/J)	.	.	.	.	.	.	.
4B-\	.	.	.	4d/	.	.	.	.	.	.	.
.	.	8A-X/L	.	.	.	8a-X/L	.	.	.	.	.
4r	.	8A-/	.	4r	.	8a-/	.	.	.	.	.
.	.	8A-/J	.	.	.	8a-/J	.	.	.	.	.
=115	=115	=115	=115	=115	=115	=115	=115	=115	=115	=115	=115
.	.	8qqB-/	.	.	.	8qqb-/	.	.	.	.	.
8r	.	8A-/L	.	8r	.	8a-X/L	.	1r	.	.	.
(8c'\L	.	8G/J	.	(8e-'/L	.	8g/J	.	.	.	.	.
8c'\	.	4G/	.	8e-'/	.	4g/	.	.	.	.	.
8c'\J)	.	.	.	8e-'/J)	.	.	.	.	.	.	.
4c\	.	2r	.	4e-/	.	8r	.	.	.	.	.
.	.	.	.	.	.	8B-/L	.	.	.	.	.
4r	.	.	.	4r	.	8e-/	.	.	.	.	.
.	.	.	.	.	.	8g/J	.	.	.	.	.
=116	=116	=116	=116	=116	=116	=116	=116	=116	=116	=116	=116
8r	.	2B-/	.	8r	.	2b-\	.	1r	.	00r	.
(8G'\L	.	.	.	(8e-'/L	.	.	.	.	.	.	.
8G'\	.	.	.	8e-'/	.	.	.	.	.	.	.
8G'\J)	.	.	.	8e-'/J)	.	.	.	.	.	.	.
.	.	8qqA-/	.	.	.	(8qqa-X/	.	.	.	.	.
4G\	.	4G/	.	4e-/	.	4g/)	.	.	.	.	.
.	.	8qqF/	.	.	.	(<8qqf/	.	.	.	.	.
4r	.	4E-/	.	4r	.	4e-/)	.	.	.	.	.
=117	=117	=117	=117	=117	=117	=117	=117	=117	=117	=117	=117
8r	.	8En/L	.	8r	.	(8en/L	.	1r	.	.	.
(8A-'\L	.	8F/J	.	(8c'/L	.	8f/J)	.	.	.	.	.
8A-'\	.	4F/	.	8c'/	.	4f/	.	.	.	.	.
8A-'\J)	.	.	.	8c'/J)	.	.	.	.	.	.	.
!	!	!LO:LB:g=original	!	!	!	!	!	!	!	!	!
4A-\	.	8r	.	4c/	.	8r	.	.	.	.	.
.	.	8c/L	.	.	.	8cc\L	.	.	.	.	.
4r	.	8A-X/	.	4r	.	8a-X\	.	.	.	.	.
.	.	8F/J	.	.	.	8f\J	.	.	.	.	.
=118	=118	=118	=118	=118	=118	=118	=118	=118	=118	=118	=118
.	.	8qqE-/	.	.	.	8qqe-/	.	.	.	.	.
8r	.	4D/	.	8r	.	4d/	.	1r	.	.	.
(8B-'\L	.	.	.	8A-X'/L	.	.	.	.	.	.	.
8B-'\	.	4D/	.	8A-'/	.	4d/	.	.	.	.	.
8B-'\J)	.	.	.	8A-'/J	.	.	.	.	.	.	.
4B-\	.	8r	.	4A-/	.	8r	.	.	.	.	.
.	.	8A-X/	.	.	.	8a-/	.	.	.	.	.
!	!	!	!	!	!	!LO:LB:g=original	!	!	!	!	!
4r	.	16G/LL	.	4r	.	(16g/LL	.	.	.	.	.
.	.	(16F/	.	.	.	16f/	.	.	.	.	.
.	.	16E-/	.	.	.	16e-/)	.	.	.	.	.
.	.	16D/JJ)	.	.	.	16d/JJ	.	.	.	.	.
=119	=119	=119	=119	=119	=119	=119	=119	=119	=119	=119	=119
.	.	8qqF/	.	.	.	8qqf/	.	.	.	.	.
8r	.	4E-X/	.	8r	.	4e-/	.	1r	.	.	.
(8B-'\L	.	.	.	(8G'/L	.	.	.	.	.	.	.
8B-'\	.	4E-/	.	8G'/	.	4e-/	.	.	.	.	.
8B-'\J)	.	.	.	8G'/J)	.	.	.	.	.	.	.
4B-\	.	8r	.	4G/	.	8r	.	.	.	.	.
.	.	8B-/L	.	.	.	8b-\L	.	.	.	.	.
4r	.	8G/	.	4r	.	8g\	.	.	.	.	.
.	.	8E-/J	.	.	.	8e-\J	.	.	.	.	.
!LO:LB:g=original	!	!	!	!LO:LB:g=original	!	!	!	!	!	!	!
=120	=120	=120	=120	=120	=120	=120	=120	=120	=120	=120	=120
.	.	8qqF/	.	.	.	8qqf/	.	.	.	.	.
8r	.	8E-/L	.	8r	.	(8e-/L	.	1r	.	1r	.
(8B-X'\L	.	8D/J	.	8A-X/L	.	8d/J)	.	.	.	.	.
8B-'\	.	4D/	.	8A-/	.	4d/	.	.	.	.	.
8B-'\J)	.	.	.	8A-/J	.	.	.	.	.	.	.
4B-\	.	8r	.	4A-/	.	8r	.	.	.	.	.
.	.	8c\	.	.	.	8cc\	.	.	.	.	.
4r	.	16B-/LL	.	4r	.	16b-\LL	.	.	.	.	.
.	.	16A-X/	.	.	.	(16a-X\	.	.	.	.	.
.	.	16G/	.	.	.	16g\)	.	.	.	.	.
.	.	16F/JJ	.	.	.	16f\JJ	.	.	.	.	.
=121	=121	=121	=121	=121	=121	=121	=121	=121	=121	=121	=121
!LO:TX:a:t=Violon	!	!	!	!	!LO:HP:a:t=cres	!	!LO:HP:t=cres	!	!LO:HP:a:t=cres	!	!LO:HP:t=cres
2EE-/	.	1E-/	.	8G/	<	8e-/	<	[>1E-/	<	[1e-/	<
.	.	.	.	4G/	.	4e-/	.	.	.	.	.
.	.	.	.	4G/	.	4e-/	.	.	.	.	.
2E-\	.	.	.	.	.	.	.	.	.	.	.
.	.	.	.	4G/	.	4e-/	.	.	.	.	.
.	.	.	.	8G/	.	8e-/	.	.	.	.	.
=122	=122	=122	=122	=122	=122	=122	=122	=122	=122	=122	=122
2EE-/	.	1F/	.	8dn/	.	8f/	.	1E-/_>	.	1e-/_	.
.	.	.	.	4d/	.	4f/	.	.	.	.	.
.	.	.	.	4d/	.	4f/	.	.	.	.	.
!	!LO:HP:a	!	!	!	!	!	!	!	!	!	!
2E-\	<	.	.	.	.	.	.	.	.	.	.
.	.	.	.	4d/	.	4f/	.	.	.	.	.
.	.	.	.	8d/	.	8f/	.	.	.	.	.
=123	=123	=123	=123	=123	=123	=123	=123	=123	=123	=123	=123
2EE-/	.	1G/ 1E-/	<	8d-X/	rf	8g/	.	1E-/_>	.	1e-/_	.
.	.	.	.	4d-/	.	4g/	rf	.	.	.	.
.	.	.	.	4d-/	.	4g/	.	.	.	.	.
2E-\	.	.	.	.	.	.	.	.	.	.	.
.	.	.	.	4d-/	.	4g/	.	.	.	.	.
.	.	.	.	8d-/	.	8g/	.	.	.	.	.
!	!	!LO:PB:g=original	!	!	!	!	!	!	!	!	!
=124	=124	=124	=124	=124	=124	=124	=124	=124	=124	=124	=124
2EE-/	.	1A-/ 1F/	.	8c/	.	8a-X/	.	1E-/_>	.	1e-/_	.
.	.	.	.	4c/	.	4a-/	.	.	.	.	.
.	.	.	.	4c/	.	4a-/	.	.	.	.	.
2E-\	.	.	.	.	.	.	.	.	.	.	.
.	.	.	.	4c/	.	4a-/	.	.	.	.	.
.	.	.	.	8c/	.	8a-/	.	.	.	.	.
!	!	!	!	!	!	!LO:LB:g=original	!	!	!	!LO:LB:g=original	!
=125	=125	=125	=125	=125	=125	=125	=125	=125	=125	=125	=125
2EE-/	.	1B-/ 1G/	.	8g/	f	8b-X\	f	1E-/_>	.	1e-/_	.
.	.	.	.	4g/	.	4b-\	.	.	.	.	.
.	.	.	.	4g/	.	4b-\	.	.	.	.	.
2E-\	.	.	.	.	.	.	.	.	.	.	.
.	.	.	.	4g/	.	4b-\	.	.	.	.	.
.	.	.	.	8g/	.	8b-\	.	.	.	.	.
!	!	!	!	!	!	!	!	!LO:LB:g=original	!	!	!
=126	=126	=126	=126	=126	=126	=126	=126	=126	=126	=126	=126
*tremolo	*	*tremolo	*	*tremolo	*	*	*	*	*	*	*
!	!LO:DY:t=fortis	!	!LO:DY:t=for&colon;	!	!LO:DY:t=ffor	!	!LO:DY:t=ffortiſ	!	!	!	!
8A-X\L	ff	8a-X\L	f	16e-X/LL	ff	16cc\LL	ff	(>1E-/]	.	(1e-/]	f
.	.	.	.	16e-X/	.	16dd-X\	.	.	.	.	.
8A-X\	.	8a-X\	.	16e-X/	.	16ee-\	.	.	.	.	.
.	.	.	.	16e-X/	.	16dd-\JJ	.	.	.	.	.
8A-X\	.	8a-X\	.	16e-X/	.	16cc\LL	.	.	.	.	.
.	.	.	.	16e-X/	.	16dd-\	.	.	.	.	.
8A-X\J	.	8a-X\J	.	16e-X/	.	16ee-\	.	.	.	.	.
.	.	.	.	16e-X/JJ	.	16dd-\JJ	.	.	.	.	.
8A-\L	.	8a-\L	.	16e-/LL	.	4cc\	.	.	.	.	.
.	.	.	.	16e-/	.	.	.	.	.	.	.
8A-\	.	8a-\	.	16e-/	.	.	.	.	.	.	.
.	.	.	.	16e-/	.	.	.	.	.	.	.
8A-\	.	8a-\	.	16e-/	.	4r	.	.	.	.	.
.	.	.	.	16e-/	.	.	.	.	.	.	.
8A-\J	.	8a-\J	.	16e-/	.	.	.	.	.	.	.
.	.	.	.	16e-/JJ	.	.	.	.	.	.	.
!	!	!	!	!LO:PB:g=original	!	!	!	!	!	!	!
=127	=127	=127	=127	=127	=127	=127	=127	=127	=127	=127	=127
8A-\L	.	8a-\L	.	16f/LL	f	16ddn\LL	.	1B-/)	f	(1f/)	.
.	.	.	.	16f/	.	16ee-\	.	.	.	.	.
8A-\	.	8a-\	.	16f/	.	16ff\	.	.	.	.	.
.	.	.	.	16f/	.	16ee-\JJ	.	.	.	.	.
8A-\	.	8a-\	.	16f/	.	16dd\LL	.	.	.	.	.
.	.	.	.	16f/	.	16ee-\	.	.	.	.	.
8A-\J	.	8a-\J	.	16f/	.	16ff\	.	.	.	.	.
.	.	.	.	16f/JJ	.	16ee-\JJ	.	.	.	.	.
8A-\L	.	8a-\L	.	16f/LL	.	4dd\	.	.	.	.	.
.	.	.	.	16f/	.	.	.	.	.	.	.
8A-\	.	8a-\	.	16f/	.	.	.	.	.	.	.
.	.	.	.	16f/	.	.	.	.	.	.	.
8A-\	.	8a-\	.	16f/	.	4r	.	.	.	.	.
.	.	.	.	16f/	.	.	.	.	.	.	.
8A-\J	.	8a-\J	.	16f/	.	.	.	.	.	.	.
.	.	.	.	16f/JJ	.	.	.	.	.	.	.
=128	=128	=128	=128	=128	=128	=128	=128	=128	=128	=128	=128
8G\L	.	8g\L	.	16b-\LL	.	16ee-X\LL	.	1e-/	.	1g/)	.
.	.	.	.	16b-\	.	16ff\	.	.	.	.	.
8G\	.	8g\	.	16b-\	.	16gg\	.	.	.	.	.
.	.	.	.	16b-\	.	16ff\JJ	.	.	.	.	.
8G\	.	8g\	.	16b-\	.	16ee-\LL	.	.	.	.	.
.	.	.	.	16b-\	.	16ff\	.	.	.	.	.
8G\J	.	8g\J	.	16b-\	.	16gg\	.	.	.	.	.
.	.	.	.	16b-\JJ	.	16ff\JJ	.	.	.	.	.
8G\L	.	8g\L	.	16b-\LL	.	4ee-\	.	.	.	.	.
.	.	.	.	16b-\	.	.	.	.	.	.	.
8G\	.	8g\	.	16b-\	.	.	.	.	.	.	.
.	.	.	.	16b-\	.	.	.	.	.	.	.
8G\	.	8g\	.	16b-\	.	4r	.	.	.	.	.
.	.	.	.	16b-\	.	.	.	.	.	.	.
8G\J	.	8g\J	.	16b-\	.	.	.	.	.	.	.
.	.	.	.	16b-\JJ	.	.	.	.	.	.	.
=129	=129	=129	=129	=129	=129	=129	=129	=129	=129	=129	=129
8D\L	.	8d\L	.	16b-\LL	.	16ff\LL	.	1B-/	.	1f/	.
.	.	.	.	16b-\	.	16gg\	.	.	.	.	.
8D\	.	8d\	.	16b-\	.	16aa-X\	.	.	.	.	.
.	.	.	.	16b-\	.	16gg\JJ	.	.	.	.	.
8D\	.	8d\	.	16b-\	.	16ff\LL	.	.	.	.	.
.	.	.	.	16b-\	.	16gg\	.	.	.	.	.
8D\J	.	8d\J	.	16b-\	.	16aa-\	.	.	.	.	.
.	.	.	.	16b-\JJ	.	16gg\JJ	.	.	.	.	.
!	!	!	!	!	!	!LO:LB:g=original	!	!	!	!	!
8D\L	.	8d\L	.	16b-\LL	.	4ff\	.	.	.	.	.
.	.	.	.	16b-\	.	.	.	.	.	.	.
8D\	.	8d\	.	16b-\	.	.	.	.	.	.	.
.	.	.	.	16b-\	.	.	.	.	.	.	.
8D\	.	8d\	.	16b-\	.	4r	.	.	.	.	.
.	.	.	.	16b-\	.	.	.	.	.	.	.
8D\J	.	8d\J	.	16b-\	.	.	.	.	.	.	.
.	.	.	.	16b-\JJ	.	.	.	.	.	.	.
*Xtremolo	*	*Xtremolo	*	*	*	*	*	*	*	*	*
!LO:LB:g=original	!	!	!	!	!	!	!	!	!	!	!
=130	=130	=130	=130	=130	=130	=130	=130	=130	=130	=130	=130
4.E-\	.	4.e-\	.	16ee-\LL	.	16gg\LL	.	2.E-/	.	2.e-\	.
.	.	.	.	16ee-\	.	16gg\	.	.	.	.	.
.	.	.	.	16ee-\	.	16gg\	.	.	.	.	.
.	.	.	.	16ee-\	.	16gg\JJ	.	.	.	.	.
*	*	*	*	*	*	*tremolo	*	*	*	*	*
.	.	.	.	16ee-\	.	16gg\LL	.	.	.	.	.
.	.	.	.	16ee-\	.	16gg\	.	.	.	.	.
8G\	.	8g\	.	16ee-\	.	16gg\	.	.	.	.	.
.	.	.	.	16ee-\JJ	.	16gg\JJ	.	.	.	.	.
4E-\	.	4e-\	.	16ee-\LL	.	16gg\LL	.	.	.	.	.
.	.	.	.	16ee-\	.	16gg\	.	.	.	.	.
.	.	.	.	16ee-\	.	16gg\	.	.	.	.	.
.	.	.	.	16ee-\	.	16gg\	.	.	.	.	.
4D\	.	4d\	.	16ee-\	.	16gg\	.	4r	.	4r	.
.	.	.	.	16ee-\	.	16gg\	.	.	.	.	.
.	.	.	.	16ee-\	.	16gg\	.	.	.	.	.
.	.	.	.	16ee-\JJ	.	16gg\JJ	.	.	.	.	.
=131	=131	=131	=131	=131	=131	=131	=131	=131	=131	=131	=131
4.C/	.	4.c\	.	16ee-\LL	.	16gg\LL	.	2.E-/	.	2.e-\	.
.	.	.	.	16ee-\	.	16gg\	.	.	.	.	.
.	.	.	.	16ee-\	.	16gg\	.	.	.	.	.
.	.	.	.	16ee-\	.	16gg\	.	.	.	.	.
.	.	.	.	16ee-\	.	16gg\	.	.	.	.	.
.	.	.	.	16ee-\	.	16gg\	.	.	.	.	.
8E-/	.	8e-\	.	16ee-\	.	16gg\	.	.	.	.	.
.	.	.	.	16ee-\JJ	.	16gg\JJ	.	.	.	.	.
4C/	.	4c\	.	16ee-\LL	.	16gg\LL	.	.	.	.	.
.	.	.	.	16ee-\	.	16gg\	.	.	.	.	.
.	.	.	.	16ee-\	.	16gg\	.	.	.	.	.
.	.	.	.	16ee-\	.	16gg\	.	.	.	.	.
4GG/	.	4G/	.	16ee-\	.	16gg\	.	4r	.	4r	.
.	.	.	.	16ee-\	.	16gg\	.	.	.	.	.
.	.	.	.	16ee-\	.	16gg\	.	.	.	.	.
.	.	.	.	16ee-\JJ	.	16gg\JJ	.	.	.	.	.
=132	=132	=132	=132	=132	=132	=132	=132	=132	=132	=132	=132
*tremolo	*	*tremolo	*	*	*	*	*	*	*	*	*
!	!	!LO:SIC:v:s=8A-/L	!	!	!	!	!	!	!	!	!
8AA-X/L	.	8G-X/L	.	16ee-\LL	.	16ff\LL	.	2e-\	.	1f/	.
.	.	.	.	16ee-\	.	16ff\	.	.	.	.	.
!	!	!LO:SIC:v:s=8A-/	!	!	!	!	!	!	!	!	!
8AA-X/	.	8G-X/	.	16ee-\	.	16ff\	.	.	.	.	.
.	.	.	.	16ee-\	.	16ff\	.	.	.	.	.
!	!	!LO:SIC:v:s=8A-/	!	!	!	!	!	!	!	!	!
8AA-X/	.	8G-X/	.	16ee-\	.	16ff\	.	.	.	.	.
.	.	.	.	16ee-\	.	16ff\	.	.	.	.	.
!	!	!LO:SIC:v:s=8A-/J	!	!	!	!	!	!	!	!	!
8AA-X/J	.	8G-X/J	.	16ee-\	.	16ff\	.	.	.	.	.
.	.	.	.	16ee-\JJ	.	16ff\JJ	.	.	.	.	.
!	!	!LO:LB:g=original	!	!	!	!	!	!	!	!	!
!	!	!LO:SIC:v:s=8B-/L	!	!	!	!	!	!	!	!	!
8BB-/L	.	8A-/L	.	16dd\LL	.	16ff\LL	.	2B-/	.	.	.
.	.	.	.	16dd\	.	16ff\	.	.	.	.	.
!	!	!LO:SIC:v:s=8B-/	!	!	!	!	!	!	!	!	!
8BB-/	.	8A-/	.	16dd\	.	16ff\	.	.	.	.	.
.	.	.	.	16dd\	.	16ff\	.	.	.	.	.
!	!	!LO:SIC:v:s=8B-/	!	!	!	!	!	!	!	!	!
8BB-/	.	8A-/	.	16dd\	.	16ff\	.	.	.	.	.
.	.	.	.	16dd\	.	16ff\	.	.	.	.	.
!	!	!LO:SIC:v:s=8B-/J	!	!	!	!	!	!	!	!	!
8BB-/J	.	8A-/J	.	16dd\	.	16ff\	.	.	.	.	.
.	.	.	.	16dd\JJ	.	16ff\JJ	.	.	.	.	.
*	*	*	*	*	*	*Xtremolo	*	*	*	*	*
*	*	*	*	*Xtremolo	*	*	*	*	*	*	*
*	*	*Xtremolo	*	*	*	*	*	*	*	*	*
*Xtremolo	*	*	*	*	*	*	*	*	*	*	*
=133	=133	=133	=133	=133	=133	=133	=133	=133	=133	=133	=133
8EE-/L	.	8E-/L	.	4ee-/ 4g/ 4B-/	.	4gg/ 4b-/ 4e-X/	.	4e-\	.	4g\	.
16GG/L	.	16G/L	.	.	.	.	.	.	.	.	.
16BB-/JJ	.	16B-/JJ	.	.	.	.	.	.	.	.	.
16E-/LL	.	16e-\LL	.	4r	.	4r	.	4r	.	4r	.
16BB-/	.	16B-\	.	.	.	.	.	.	.	.	.
16GG/	.	16G\	.	.	.	.	.	.	.	.	.
16EE-/JJ	.	16E-\JJ	.	.	.	.	.	.	.	.	.
4BB-/	.	2B-/	.	4r	.	4r	.	4r	.	4r	.
4BB-/	.	.	.	4dd/ 4f/ 4B-/	.	4ff/ 4b-/ 4d/	.	4B-/	.	4f\	.
=134	=134	=134	=134	=134	=134	=134	=134	=134	=134	=134	=134
8EE-/L	.	8E-/L	.	4ee-/ 4g/	.	4gg/ 4b-/ 4e-/	.	4E-/	.	4e-\	.
16GG/L	.	16G/L	.	.	.	.	.	.	.	.	.
16BB-/JJ	.	16B-/JJ	.	.	.	.	.	.	.	.	.
16E-/LL	.	16e-/LL	.	4r	.	4r	.	4r	.	4r	.
16BB-/	.	16B-/	.	.	.	.	.	.	.	.	.
16GG/	.	16G/	.	.	.	.	.	.	.	.	.
16EE-/JJ	.	16E-/JJ	.	.	.	.	.	.	.	.	.
4BB-/	.	2B-/	.	4r	.	4r	.	4r	.	4r	.
4BB-/	.	.	.	4dd/ 4f/ 4B-/	.	4ff/ 4b-/ 4d/	.	4B-/	.	4f\	.
!	!	!	!	!LO:LB:g=original	!	!	!	!	!	!	!
=135	=135	=135	=135	=135	=135	=135	=135	=135	=135	=135	=135
!LO:TX:t=P:problem=mixed beam	!	!LO:TX:t=P:problem=mixed beam	!	!	!	!	!	!	!	!	!
8EE-/L	.	8E-/L	.	4ee-/ 4g/ 4B-/	.	4gg/ 4b-/ 4e-/	.	4E-/	.	4e-\	.
8E-\	.	8e-\	.	.	.	.	.	.	.	.	.
8BB-\	.	8B-\	.	4g/ 4B-/	.	4gg/ 4b-/ 4e-/	.	4E-/	.	4e-\	.
8GG\J	.	8G\J	.	.	.	.	.	.	.	.	.
4EE-/	.	4E-/	.	4g/ 4B-/	.	4gg/ 4b-/ 4e-/	.	4E-/	.	4e-\	.
4r	.	4r	.	4r	.	4r	.	4r	.	4r	.
==	==	==	==	==	==	==	==	==	==	==	==
*-	*-	*-	*-	*-	*-	*-	*-	*-	*-	*-	*-
!!!system-decoration: [(g1)][(g2)]
!!!RDF**dynam: f = for
!!!RDF**dynam: p = p:
!!!RDF**dynam: pp = pp:
!!!RDF**dynam: rf = rinfor
!!!RDF**dynam: < = cres:
!!!RDF**kern: | = vertical stroke
!!!RDF**kern: > = above
!!!RDF**kern: < = below
!!!ENC: Katarzyna Serwa
!!!END: 2020-09-15
!!!EED: Andrzej Borzym
!!!EEV: 2022-01-27
!!!YEC: Copyright 2022 Narodowy Instytut Fryderyka Chopina (https://polishscores.org)
!!!YEM: License CC-BY-4.0 (https://creativecommons.org/licenses/by/4.0)
